!!!!SEGMENT: pl-sa--131-a-iii-31--001-002_luna-georgius--vesperae-confitebor.krn
!!!cenid: 17xx:490
!!!COM: Luna, Georgius
!!!COM-rismID: pe41010079
!!!CDT:
!!!CNT:
!!!OPR: Vesperae
!!!OTL: Confitebor
!!!OMV: 002
!!!PDT:
!!!AGN: Sacred; Vespers
!!!YEC: Copyright 2022 Narodowy Instytut Fryderyka Chopina (https://polishscores.org)
!!!YEM: License CC-BY-4.0 (https://creativecommons.org/licenses/by/4.0)
!!!SMS-siglum: PL-SA
!!!SMS-shelfmark: 131/A III 31
!!!SMS-shelfwork: 001-002 M
!!!SMS-variant:
!!!SMS-altvar:
!!!NIFC-rismSourceID: 1001070694
!!!NIFC-rismChildID: 1001070694
!!!NIFC-islandoraID: none
!!!URL-pdf-islandora:
!!!URL-scan: https://bc.bdsandomierz.pl/dlibra/publication/1488/edition/1456/content @EN{Scan in the Sandomierz Diocese Digital Library} @PL{Skany w portalu Cyfrowa Biblioteka Diecezjalna w Sandomierzu}
!!!IIIF:
!!!ONB-nifc: UWAGA: części Vesperae: Dixit Dominus, Confitebor, Beatus vir, Laudate pueri, Laudate Dominum, Magnificat
!!!AIN: 1 bass 2 clrno 1 organ 1 soprn 1 tenor 2 violn
!!!OMD:
!!!OMD-mod: Allegro
!!!key: C
**kern	**kern	**dynam	**kern	**dynam	**kern	**text	**kern	**text	**kern	**text	**kern	**kern
*part8	*part7	*part7	*part6	*part6	*part5	*part5	*part4	*part4	*part3	*part3	*part2	*part1
*staff8	*staff7	*staff7	*staff6	*staff6	*staff5	*staff5	*staff4	*staff4	*staff3	*staff3	*staff2	*staff1
*IGcont	*	*	*	*	*	*	*	*	*	*	*	*
*ICklav	*ICstr	*	*ICstr	*	*ICvox	*	*ICvox	*	*ICvox	*	*ICbras	*ICbras
*Iorgan	*Ivioln	*	*Ivioln	*	*Ibass	*	*Itenor	*	*Isoprn	*	*Iclrno	*Iclrno
*I"Fondamento	*I"Violino Secundo	*	*I"Violino Primo	*	*I"Baſso	*	*I"Tenore	*	*I"Canto	*	*I"Tromba Secunda ex C.	*I"Tromba Prima ex C.
*mI"Basso continuo	*mI"Violino II	*	*mI"Violino I	*	*mI"Basso	*	*	*	*mI"Soprano	*	*mI"Clarino II in C	*mI"Clarino I in C
*I'bc	*I'vl 2	*	*I'vl 1	*	*I'B	*	*I'T	*	*I'S	*	*I'clno 2 in C	*I'clno 1 in C
*clefF4	*clefG2	*	*clefG2	*	*clefF4	*	*clefC4	*	*clefC1	*	*clefG2	*clefG2
*	*	*	*	*	*	*	*mclefGv2	*	*mclefG2	*	*	*
*k[]	*k[]	*	*k[]	*	*k[]	*	*k[]	*	*k[]	*	*k[]	*k[]
*C:	*C:	*	*C:	*	*C:	*	*C:	*	*C:	*	*C:	*C:
*M3/8	*M3/8	*	*M3/8	*	*M3/8	*	*M3/8	*	*M3/8	*	*M3/8	*M3/8
=1	=1	=1	=1	=1	=1	=1	=1	=1	=1	=1	=1	=1
!LO:TX:t=P:problem=mixed beam	!	!	!LO:N:vis=00	!	!LO:N:vis=00	!	!LO:N:vis=00	!	!	!	!LO:N:vis=00	!LO:N:vis=00
!LO:TX:a:Bi:mod= :t=Allo	!LO:N:vis=00	!	!LO:TX:a:Bi:mod= :t=Allo	!	!LO:TX:a:Bi:mod= :t=Allo	!	!LO:TX:a:Bi:mod= :t=Allo	!	!	!	!LO:TX:a:Bi:mod= :t=Allo	!LO:TX:a:Bi:mod= :t=Allo
8C/L	1.r	.	1.r	.	1.r	.	1.r	.	8cc\	Con-	1.r	1.r
8c\	.	.	.	.	.	.	.	.	4cc\	-fi-	.	.
8B\J	.	.	.	.	.	.	.	.	.	.	.	.
=2	=2	=2	=2	=2	=2	=2	=2	=2	=2	=2	=2	=2
8A\L	.	.	.	.	.	.	.	.	8cc\	-te-	.	.
16G\L	.	.	.	.	.	.	.	.	4cc\	-bor	.	.
16F\J	.	.	.	.	.	.	.	.	.	.	.	.
8E\J	.	.	.	.	.	.	.	.	.	.	.	.
=3	=3	=3	=3	=3	=3	=3	=3	=3	=3	=3	=3	=3
8D/L	.	.	.	.	.	.	.	.	8ff\	ti-	.	.
8BB/	.	.	.	.	.	.	.	.	4ff\	-bi	.	.
8GG/J	.	.	.	.	.	.	.	.	.	.	.	.
=4	=4	=4	=4	=4	=4	=4	=4	=4	=4	=4	=4	=4
8C/L	.	.	.	.	.	.	.	.	16ee\	Do-	.	.
.	.	.	.	.	.	.	.	.	16dd\	-mi-	.	.
.	.	.	.	.	.	.	.	.	8qqdd/	.	.	.
8D/	.	.	.	.	.	.	.	.	4cc\	-ne	.	.
8E/J	.	.	.	.	.	.	.	.	.	.	.	.
=5	=5	=5	=5	=5	=5	=5	=5	=5	=5	=5	=5	=5
!	!LO:N:vis=00	!	!LO:N:vis=00	!	!LO:N:vis=00	!	!LO:N:vis=00	!	!	!	!LO:N:vis=00	!LO:N:vis=00
8D/L	1.r	.	1.r	.	1.r	.	1.r	.	8ff\	ti-	1.r	1.r
8BB/	.	.	.	.	.	.	.	.	4ff\	-bi	.	.
8GG/J	.	.	.	.	.	.	.	.	.	.	.	.
=6	=6	=6	=6	=6	=6	=6	=6	=6	=6	=6	=6	=6
8C/L	.	.	.	.	.	.	.	.	16ee\	Do-	.	.
.	.	.	.	.	.	.	.	.	16dd\	-mi-	.	.
.	.	.	.	.	.	.	.	.	8qqdd/	.	.	.
8D/	.	.	.	.	.	.	.	.	4cc\	-ne	.	.
8E/J	.	.	.	.	.	.	.	.	.	.	.	.
=7	=7	=7	=7	=7	=7	=7	=7	=7	=7	=7	=7	=7
8C/L	.	.	.	.	.	.	.	.	8ee\	in	.	.
8AA/	.	.	.	.	.	.	.	.	8ee\	to-	.	.
8D/J	.	.	.	.	.	.	.	.	8ff#X\	-to	.	.
=8	=8	=8	=8	=8	=8	=8	=8	=8	=8	=8	=8	=8
!	!	!	!	!	!	!	!	!	!	!LO:SIC:s=cor-	!	!
8GG/L	.	.	.	.	.	.	.	.	8gg\L	Cor-	.	.
8AA/	.	.	.	.	.	.	.	.	16ff#X\L	.	.	.
.	.	.	.	.	.	.	.	.	16ee\JJ	.	.	.
8BB/J	.	.	.	.	.	.	.	.	16dd\LL	-de	.	.
.	.	.	.	.	.	.	.	.	16cc\JJ	.	.	.
=9	=9	=9	=9	=9	=9	=9	=9	=9	=9	=9	=9	=9
!	!LO:N:vis=00	!	!LO:N:vis=00	!	!LO:N:vis=00	!	!LO:N:vis=00	!	!	!	!LO:N:vis=00	!LO:N:vis=00
8C/L	1.r	.	1.r	.	1.r	.	1.r	.	24b\LL	me-	1.r	1.r
.	.	.	.	.	.	.	.	.	24a\	.	.	.
.	.	.	.	.	.	.	.	.	24g\JJ	.	.	.
!	!	!	!	!	!	!	!	!	!LO:TX:t=P:problem=przyjęto trillo	!	!	!
!	!	!	!	!	!	!	!	!	!LO:SIC:s=4aT	!	!	!
!	!	!	!	!	!	!	!	!	!LO:TX:a:mod= :t=t	!	!	!
8D/	.	.	.	.	.	.	.	.	4a\	.	.	.
8DD/J	.	.	.	.	.	.	.	.	.	.	.	.
=10	=10	=10	=10	=10	=10	=10	=10	=10	=10	=10	=10	=10
.	.	.	.	.	.	.	.	.	8qqa/	.	.	.
!LO:TX:t=P:problem=mixed beam	!	!	!	!	!	!	!	!	!	!	!	!
16GG/LL	.	.	.	.	.	.	.	.	4g\	-o	.	.
16G\	.	.	.	.	.	.	.	.	.	.	.	.
16D\	.	.	.	.	.	.	.	.	.	.	.	.
16C\	.	.	.	.	.	.	.	.	.	.	.	.
16BB\	.	.	.	.	.	.	.	.	8r	.	.	.
16AA\JJ	.	.	.	.	.	.	.	.	.	.	.	.
=11	=11	=11	=11	=11	=11	=11	=11	=11	=11	=11	=11	=11
8GG/L	.	.	.	.	.	.	.	.	4dd\	in	.	.
8BB/	.	.	.	.	.	.	.	.	.	.	.	.
8C/J	.	.	.	.	.	.	.	.	8ee\	con-	.	.
=12	=12	=12	=12	=12	=12	=12	=12	=12	=12	=12	=12	=12
8GG/L	.	.	.	.	.	.	.	.	8.dd\	-si-	.	.
8BB/	.	.	.	.	.	.	.	.	.	.	.	.
.	.	.	.	.	.	.	.	.	16dd\	-li-	.	.
8C/J	.	.	.	.	.	.	.	.	8ee\	-o	.	.
=13	=13	=13	=13	=13	=13	=13	=13	=13	=13	=13	=13	=13
!	!LO:N:vis=00	!	!LO:N:vis=00	!	!LO:N:vis=00	!	!LO:N:vis=00	!	!LO:SIC:s=(4ff	!	!LO:N:vis=00	!LO:N:vis=00
8D/L	1.r	.	1.r	.	1.r	.	1.r	.	(4ffn\	juſ-	1.r	1.r
8BB/	.	.	.	.	.	.	.	.	.	.	.	.
8C/J	.	.	.	.	.	.	.	.	8ee\)	.	.	.
=14	=14	=14	=14	=14	=14	=14	=14	=14	=14	=14	=14	=14
!	!	!	!	!	!	!	!	!	!LO:SIC:s=8eet	!	!	!
!LO:TX:t=P:problem=mixed beam	!	!	!	!	!	!	!	!	!LO:TX:a:mod: t=t	!	!	!
8GG/L	.	.	.	.	.	.	.	.	8ee\	-to-	.	.
8G\	.	.	.	.	.	.	.	.	4dd\	-rum	.	.
8F\J	.	.	.	.	.	.	.	.	.	.	.	.
!	!	!	!	!	!	!	!	!	!LO:LB:g=original	!	!	!
=15	=15	=15	=15	=15	=15	=15	=15	=15	=15	=15	=15	=15
4E\	.	.	.	.	.	.	.	.	8cc\	et	.	.
.	.	.	.	.	.	.	.	.	8cc\	con-	.	.
8E\	.	.	.	.	.	.	.	.	8cc\	-gre-	.	.
=16	=16	=16	=16	=16	=16	=16	=16	=16	=16	=16	=16	=16
4F\	.	.	.	.	.	.	.	.	8dd\L	-ga-	.	.
.	.	.	.	.	.	.	.	.	16cc\L	.	.	.
.	.	.	.	.	.	.	.	.	16b\J	.	.	.
8E\	.	.	.	.	.	.	.	.	8cc\J	.	.	.
=17	=17	=17	=17	=17	=17	=17	=17	=17	=17	=17	=17	=17
!LO:TX:t=P:problem=mixed beam	!LO:N:vis=0	!	!LO:N:vis=0	!	!LO:N:vis=0	!	!LO:N:vis=0	!	!	!	!LO:N:vis=0	!LO:N:vis=0
8F\L	2.r	.	2.r	.	2.r	.	2.r	.	8dd\	-ti-	2.r	2.r
.	.	.	.	.	.	.	.	.	8qqcc/	.	.	.
8G\	.	.	.	.	.	.	.	.	4b\	-o-	.	.
8GG/J	.	.	.	.	.	.	.	.	.	.	.	.
!LO:LB:g=original	!	!	!	!	!	!	!	!	!	!	!	!
=18	=18	=18	=18	=18	=18	=18	=18	=18	=18	=18	=18	=18
!	!	!	!	!	!	!	!	!	!	!LO:SIC:s=-ne.	!	!
8C/L	.	.	.	.	.	.	.	.	4cc\	-ne	.	.
8GG/	.	.	.	.	.	.	.	.	.	.	.	.
8C/J	.	.	.	.	.	.	.	.	8r	.	.	.
=19	=19	=19	=19	=19	=19	=19	=19	=19	=19	=19	=19	=19
!LO:TX:t=P:problem=mixed beam	!	!	!	!	!	!	!	!	!	!	!	!
!LO:TX:a:i:mod= :t=Tutti	!LO:TX:t=P:problem=mixed beam	!	!	!	!	!	!	!	!	!	!	!
8C/L	8e/L	.	8cc\	.	8r	.	8e\	Ma-	8cc\	Ma-	4cc\	4ee\
8c\	8ee\	.	4cc\	.	8c\	Ma-	8e\L	-gna	4cc\	-gna	.	.
8B\J	8dd\J	.	.	.	8B\	-gna	8d\J	.	.	.	8r	8r
=20	=20	=20	=20	=20	=20	=20	=20	=20	=20	=20	=20	=20
8A\L	8cc\L	.	8cc\	.	8A\	o-	8c\	o-	8cc\	o-	4cc\	4ee\
16G\L	16b\L	.	4cc\	.	16G\LL	-pe-	16B\LL	-pe-	8cc\	-pe-	.	.
16F\J	16a\J	.	.	.	16F\JJ	.	16A\JJ	.	.	.	.	.
8E\J	8g\J	.	.	.	8E\	-ra	8G\	-ra	8cc\	-ra	8r	8r
=21	=21	=21	=21	=21	=21	=21	=21	=21	=21	=21	=21	=21
8D/L	8b\	.	8ff\	.	8D/	o-	8B\	o-	8ff\	o-	8dd\L	8ff\L
8BB/	4dd\	.	4ff\	.	8BB/	-pe-	8d\	-pe-	8ff\	-pe-	8dd\	8ff\
8GG/J	.	.	.	.	8GG/	-ra	8d\	-ra	8ff\	-ra	8dd\J	8ff\J
=22	=22	=22	=22	=22	=22	=22	=22	=22	=22	=22	=22	=22
!	!LO:SIC:s=(16gLL	!	!LO:SIC:s=(16eeLL	!	!	!	!	!	!	!	!	!
8C\L	16g/LL	.	16ee\LL	.	8C\	Do-	16G/	Do-	16ee\	Do-	4cc\	4ee\
!	!LO:SIC:s=16fJJ)	!	!LO:SIC:s=16ddJJ)	!	!	!	!	!	!	!	!	!
.	16f/JJ	.	16dd\JJ	.	.	.	16F/	-mi-	16dd\	-mi-	.	.
.	8qqf/	.	8qqdd/	.	.	.	8qqF/	.	8qqdd/	.	.	.
8D\	4e/	.	4cc\	.	8D\	-mi-	4E/	-ni	4cc\	-ni	.	.
8E\J	.	.	.	.	8E\	-ni	.	.	.	.	8r	8r
=23	=23	=23	=23	=23	=23	=23	=23	=23	=23	=23	=23	=23
8D/L	8b\	.	8ff\	.	8D/	o-	8B\	o-	8ff\	o-	8dd\L	8ff\L
8BB/	4dd\	.	4ff\	.	8BB/	-pe-	8d\	-pe-	8ff\	-pe-	8dd\	8ff\
8GG/J	.	.	.	.	8GG/	-ra	8d\	-ra	8ff\	-ra	8dd\J	8ff\J
=24	=24	=24	=24	=24	=24	=24	=24	=24	=24	=24	=24	=24
!	!	!	!LO:SIC:s=(16eeLL	!	!	!	!	!	!	!	!	!
8C/L	(16g/LL	.	16ee\LL	.	8C\	Do-	16G/	Do-	16ee\	Do-	4cc\	4ee\
!	!	!	!LO:SIC:s=16ddJJ)	!	!	!	!	!	!	!	!	!
.	16f/JJ)	.	16dd\JJ	.	.	.	16F/	-mi-	16dd\	-mi-	.	.
.	8qqf/	.	8qqdd/	.	.	.	8qqF/	.	8qqdd/	.	.	.
8D/	4e/	.	4cc\	.	8D\	-mi-	4E/	-ni	4cc\	-ni	.	.
8E/J	.	.	.	.	8E\	-ni	.	.	.	.	8r	8r
=25	=25	=25	=25	=25	=25	=25	=25	=25	=25	=25	=25	=25
!LO:TX:t=P:problem=brak t. 25	!	!	!	!	!	!	!	!	!	!	!	!
!LO:MO:null:mod=8C@L	!	!	!	!	!	!	!	!	!	!	!	!
4.ryy	8ee\L	.	4ccc\	.	8c\L	ex-	4c\	ex-	4ee\	ex-	4cc\	4ee\
!LO:MO:null:mod=8E@	!	!	!	!	!	!	!	!	!	!	!	!
.	8g\	.	.	.	8E\J	.	.	.	.	.	.	.
!LO:MO:null:mod=8G@J	!	!	!	!	!	!	!	!	!	!	!	!
.	8dd\J	.	8bb\	.	8G\	-qui-	8B\	-qui-	8dd\	-qui-	8g\	8dd\
=26	=26	=26	=26	=26	=26	=26	=26	=26	=26	=26	=26	=26
8C\L	8ee\L	.	4ccc\	.	8c\	-si-	8c\	-si-	8ee\	-si-	4cc\	4ee\
8E\	8g\	.	.	.	8E\	-ta	8c\	-ta	8ee\	-ta	.	.
8G\J	8dd\J	.	8bb\	.	8G\	in	8B\	in	8dd\	in	8g\	8dd\
=27	=27	=27	=27	=27	=27	=27	=27	=27	=27	=27	=27	=27
8C/L	8ee\L	.	8ccc\L	.	8c\L	om-	8c\L	om-	8ee\L	om-	8cc\L	8ee\L
8BB/	8dd\	.	8ff\	.	8B\	.	8d\	.	8ff\	.	8dd\	8ff\
8C/J	8cc\J	.	8ee\J	.	8c\J	.	8c\J	.	8ee\J	.	8cc\J	8ee\J
=28	=28	=28	=28	=28	=28	=28	=28	=28	=28	=28	=28	=28
!	!LO:SIC:s=8ccTL	!	!LO:SIC:s=8eetL	!	!	!	!	!	!	!	!	!
!	!LO:TX:t=P:problem=przyjęto trillo	!	!LO:TX:a:mod= :t=t	!	!	!	!	!	!	!	!	!
!LO:TX:t=P:problem=mixed beam	!LO:TX:a:mod= :t=t	!	!LO:TX:t=P:problem=przyjęto trillo	!	!	!	!	!	!	!	!	!
8G\L	8cc\L	.	8ee\L	.	8G\	.	8c\	.	8ee\	.	8cc\L	8ee\L
8GG/	8b\J	.	8dd\J	.	8GG/	-nes	8B\	-nes	8dd\	-neſ	8g\J	8dd\J
8BB/J	8r	.	8r	.	8r	.	8r	.	8r	.	8r	8r
!	!	!	!	!	!LO:LB:g=original	!	!LO:LB:g=original	!	!LO:PB:g=original	!	!	!
=29	=29	=29	=29	=29	=29	=29	=29	=29	=29	=29	=29	=29
!	!	!	!	!	!	!	!	!	!LO:N:vis=8	!	!	!
8C/L	8g\L	.	16ee\LL	.	8C/L	vo-	8G\L	vo-	4ee\	vo-	8cc\L	8ee\L
.	.	.	16gg\JJ	.	.	.	.	.	.	.	.	.
.	.	.	8qqgg/	.	.	.	.	.	.	.	.	.
8AA/	8cc\	.	4ff#X\	.	8AA/J	.	8c\J	.	.	.	16dd\L	16dd\L
.	.	.	.	.	.	.	.	.	.	.	16dd\	16dd\
8D/J	8a\J	.	.	.	8D\	-lun-	8A\	-lun-	8ff#X\	-lun-	16dd\	16dd\
.	.	.	.	.	.	.	.	.	.	.	16dd\JJ	16dd\JJ
=30	=30	=30	=30	=30	=30	=30	=30	=30	=30	=30	=30	=30
8GG/L	16b\LL	.	8gg\L	.	8G\L	-ta-	8B\L	-ta-	8gg\L	-ta-	4g/	4dd\
.	16gg\	.	.	.	.	.	.	.	.	.	.	.
8AA/	16ff#X\	.	16ff#X\L	.	8A\J	.	16d\L	.	16ff#X\L	.	.	.
.	16ee\	.	16ee\	.	.	.	16c\JJ	.	16ee\JJ	.	.	.
8BB/J	16dd\	.	16dd\	.	8B\	-tes	16B\LL	-tes	16dd\LL	-tes	8r	8r
.	16cc\JJ	.	16cc\JJ	.	.	.	16A\JJ	.	16cc\JJ	.	.	.
=31	=31	=31	=31	=31	=31	=31	=31	=31	=31	=31	=31	=31
*	*	*	*Xtuplet	*	*	*	*	*	*	*	*	*
!	!LO:TUP:b	!	!	!	!	!	!	!	!	!	!	!
8C/L	24b/LL	.	24b/LL	.	8c\L	e-	8G/	e-	8b\	e-	8r	8r
.	24a/	.	24a/	.	.	.	.	.	.	.	.	.
.	24g/JJ	.	24g/JJ	.	.	.	.	.	.	.	.	.
!	!LO:SIC:s=4aT	!	!LO:SIC:s=4aT	!	!	!	!	!	!LO:SIC:s=4aT	!	!	!
!	!LO:TX:a:mod= :t=t	!	!LO:TX:a:mod= :t=t	!	!	!	!	!	!LO:TX:a:mod: t=t	!	!	!
8D/	4a/	.	4a/	.	8d\	.	4F#X/	.	4a\	.	8dd\L	8dd\L
8DD/J	.	.	.	.	8D\J	.	.	.	.	.	16dd\L	16dd\L
.	.	.	.	.	.	.	.	.	.	.	16dd\JJ	16dd\JJ
=32	=32	=32	=32	=32	=32	=32	=32	=32	=32	=32	=32	=32
!	!	!	!	!	!	!LO:SIC:s=-jus.	!	!LO:SIC:s=-jus.	!	!LO:SIC:s=-jus.	!	!
4GG/	8g/L	.	8g/L	.	4G\	-jus	4G/	-juſ	4g\	-jus	4g/	4dd\
.	8d/	.	8d/	.	.	.	.	.	.	.	.	.
8r	8G/J	.	8G/J	.	8r	.	8r	.	8r	.	8r	8r
=33	=33	=33	=33	=33	=33	=33	=33	=33	=33	=33	=33	=33
!	!	!LO:MO:mod=!LO&colon;DY&colon;ed=brack	!	!	!	!	!	!	!	!	!	!
!	!	!null	!	!	!	!	!	!	!	!	!	!
!	!	!LO:MO:null:mod=p	!	!	!	!	!	!LO:SIC:s=Con-	!	!	!	!
8G\L	8b\L	.	8dd\L	p	1.r	.	4.d\	con-	1.r	.	1.r	1.r
8G\	8b\	.	8dd\	.	.	.	.	.	.	.	.	.
8G\J	8b\J	.	8dd\J	.	.	.	.	.	.	.	.	.
=34	=34	=34	=34	=34	=34	=34	=34	=34	=34	=34	=34	=34
8G\L	8cc\L	.	8ee\L	.	.	.	8e\	-feſ-	.	.	.	.
!	!	!	!LO:SIC:s=(16ccL	!	!	!	!	!	!	!	!	!
8G\	(16a\L	.	16cc\L	.	.	.	16c\LL	-si-	.	.	.	.
!	!	!	!LO:SIC:s=16ddJ)	!	!	!	!	!	!	!	!	!
.	16b\J)	.	16dd\J	.	.	.	16d\JJ	.	.	.	.	.
8G\J	8cc\J	.	8ee\J	.	.	.	8e\	-o	.	.	.	.
=35	=35	=35	=35	=35	=35	=35	=35	=35	=35	=35	=35	=35
8G\L	8cc\L	.	8ee\L	.	.	.	16e\	et	.	.	.	.
.	.	.	.	.	.	.	16e\	mag-	.	.	.	.
8G\	8cc\	.	8ee\	.	.	.	8g\	-ni-	.	.	.	.
8G\J	8cc\J	.	8ee\J	.	.	.	8e\	-fi-	.	.	.	.
!	!LO:LB:g=original	!	!LO:PB:g=original	!	!	!	!	!	!	!	!	!
=36	=36	=36	=36	=36	=36	=36	=36	=36	=36	=36	=36	=36
8G\L	8b\L	.	8dd\L	.	.	.	8d\	-cen-	.	.	.	.
8G\	(16g\L	.	(16b\L	.	.	.	16B\LL	-ti-	.	.	.	.
.	16a\J)	.	16cc\J)	.	.	.	16c\JJ	.	.	.	.	.
8G\J	8b\J	.	8dd\J	.	.	.	8d\	-a	.	.	.	.
=37	=37	=37	=37	=37	=37	=37	=37	=37	=37	=37	=37	=37
!	!	!	!	!	!LO:N:vis=00	!	!	!	!LO:N:vis=00	!	!LO:N:vis=00	!LO:N:vis=00
8D\L	8a/L	.	8cc\L	.	1.r	.	8c\	o-	1.r	.	1.r	1.r
8D\	8a/	.	8cc\	.	.	.	4c\	-puſ	.	.	.	.
8D\J	8a/J	.	8cc\J	.	.	.	.	.	.	.	.	.
!LO:PB:g=original	!	!	!	!	!	!	!	!	!	!	!	!
=38	=38	=38	=38	=38	=38	=38	=38	=38	=38	=38	=38	=38
8GG/L	16g/LL	.	16b/LL	.	.	.	16B\LL	e-	.	.	.	.
.	16f#X/J	.	16a/J	.	.	.	16A\JJ	.	.	.	.	.
8BB/	8g/J	.	8g/J	.	.	.	8G/	-jus	.	.	.	.
8GG/J	8r	.	8r	.	.	.	8r	.	.	.	.	.
=39	=39	=39	=39	=39	=39	=39	=39	=39	=39	=39	=39	=39
8D\L	4f#X/	.	4a/	.	.	.	4A\	et	.	.	.	.
8D\	.	.	.	.	.	.	.	.	.	.	.	.
8D\J	8g/	.	8b/	.	.	.	8B\	juſ-	.	.	.	.
=40	=40	=40	=40	=40	=40	=40	=40	=40	=40	=40	=40	=40
8D/L	8a/L	.	8cc\L	.	.	.	8c\	-ti-	.	.	.	.
!	!LO:SIC:s=(16gL	!	!	!	!	!	!LO:SIC:s=16BLL	!	!	!	!	!
8D/	16g/L	.	(16b\L	.	.	.	(16B\LL	-ti-	.	.	.	.
!	!LO:SIC:s=16f#J)	!	!	!	!	!	!LO:SIC:s=16AJJ	!	!	!	!	!
.	16f#X/J	.	16a\J)	.	.	.	16A\JJ)	.	.	.	.	.
8GG/J	8g/J	.	8b\J	.	.	.	8B\	-a	.	.	.	.
!	!	!	!	!	!	!	!LO:LB:g=original	!	!	!	!	!
=41	=41	=41	=41	=41	=41	=41	=41	=41	=41	=41	=41	=41
!	!	!	!	!	!LO:N:vis=00	!	!	!	!LO:N:vis=00	!	!LO:N:vis=00	!LO:N:vis=00
8G\L	4b\	.	4dd\	.	1.r	.	4d\	e-	1.r	.	1.r	1.r
8G\	.	.	.	.	.	.	.	.	.	.	.	.
8G\J	8cc\	.	8ee\	.	.	.	8e\	-juſ	.	.	.	.
=42	=42	=42	=42	=42	=42	=42	=42	=42	=42	=42	=42	=42
!	!	!	!LO:SIC:s=8ffL	!	!	!	!	!	!	!	!	!
8G\L	8dd\L	.	8ffn\L	.	.	.	8f\L	ma-	.	.	.	.
8G\	16cc\L	.	16ee\L	.	.	.	16e\L	.	.	.	.	.
.	16b\J	.	16dd\J	.	.	.	16d\JJ	.	.	.	.	.
8C\J	8cc\J	.	8ee\J	.	.	.	8e\	-net	.	.	.	.
=43	=43	=43	=43	=43	=43	=43	=43	=43	=43	=43	=43	=43
!	!LO:N:vis=00	!	!LO:N:vis=00	!	!	!	!	!	!	!	!	!
8C\L	1.r	.	1.r	.	.	.	8g\	in	.	.	.	.
8E\	.	.	.	.	.	.	8c\	ſae-	.	.	.	.
8F\J	.	.	.	.	.	.	16d\	-cu-	.	.	.	.
.	.	.	.	.	.	.	16d\	-lum	.	.	.	.
=44	=44	=44	=44	=44	=44	=44	=44	=44	=44	=44	=44	=44
.	.	.	.	.	.	.	8qqc/	.	.	.	.	.
8G\L	.	.	.	.	.	.	4B\	ſae-	.	.	.	.
8F\	.	.	.	.	.	.	.	.	.	.	.	.
8E\J	.	.	.	.	.	.	8c\	.	.	.	.	.
=45	=45	=45	=45	=45	=45	=45	=45	=45	=45	=45	=45	=45
!LO:TX:t=P:problem=mixed beam	!	!	!	!	!LO:N:vis=0	!	!	!	!LO:N:vis=0	!	!LO:N:vis=0	!LO:N:vis=0
8F\L	.	.	.	.	2.r	.	8d\	.	2.r	.	2.r	2.r
.	.	.	.	.	.	.	8qqc/	.	.	.	.	.
8G\	.	.	.	.	.	.	8.B\	.	.	.	.	.
8GG/J	.	.	.	.	.	.	.	.	.	.	.	.
.	.	.	.	.	.	.	16B\	-cu-	.	.	.	.
=46	=46	=46	=46	=46	=46	=46	=46	=46	=46	=46	=46	=46
.	.	.	.	.	.	.	8qqB/	.	.	.	.	.
!	!	!	!	!	!	!	!	!LO:SIC:s=-li.	!	!	!	!
8C/L	.	.	.	.	.	.	4.c\	-li	.	.	.	.
8GG/	.	.	.	.	.	.	.	.	.	.	.	.
8C/J	.	.	.	.	.	.	.	.	.	.	.	.
=47	=47	=47	=47	=47	=47	=47	=47	=47	=47	=47	=47	=47
!	!	!	!	!	!	!	!LO:TX:a:i:mod= :t=Tutti	!	!LO:TX:a:i:mod= :t=Tutti	!	!	!
8C\L	16g/LL	.	8ee\L	.	8C\	Me-	8G\	Me-	8ee\	Me-	4cc\	4ee\
.	16g/	.	.	.	.	.	.	.	.	.	.	.
16C\L	16g/	.	8ccc\	.	16C\LL	-mo-	8G\	-mo-	8ee\	-mo-	.	.
16D\	16g/	.	.	.	16D\JJ	.	.	.	.	.	.	.
16E\	16g/	.	8ee\J	.	16E\	-ri-	16G\	-ri-	16ee\	-ri-	8r	8r
16F\JJ	16g/JJ	.	.	.	16F\	-am	16G\	-am	16ee\	-am	.	.
=48	=48	=48	=48	=48	=48	=48	=48	=48	=48	=48	=48	=48
8G\L	16g/LL	.	8dd\L	.	8G\	fe-	8G\	fe-	8dd\	fe-	4g/	4dd\
.	16g/	.	.	.	.	.	.	.	.	.	.	.
16G\L	16g/	.	8bb\	.	16G\LL	-cit	4G\	-cit	4dd\	-cit	.	.
16A\	16g/	.	.	.	16A\	.	.	.	.	.	.	.
16B\	16g/	.	8dd\J	.	16B\	.	.	.	.	.	8r	8r
16G\JJ	16g/JJ	.	.	.	16G\JJ	.	.	.	.	.	.	.
!	!	!	!	!	!	!	!	!	!	!	!LO:LB:g=original	!
=49	=49	=49	=49	=49	=49	=49	=49	=49	=49	=49	=49	=49
8A\L	16e/LL	.	8cc\L	.	8A\	mi-	8E/	mi-	8cc\	mi-	4e/	4e/
.	16e/	.	.	.	.	.	.	.	.	.	.	.
16A\L	16e/	.	8aa\	.	16A\LL	-ra-	4E/	-ra-	4cc\	-ra-	.	.
16B\	16e/	.	.	.	16B\	.	.	.	.	.	.	.
16c\	16e/	.	8cc\J	.	16c\	.	.	.	.	.	8r	8r
16d\JJ	16e/JJ	.	.	.	16d\JJ	.	.	.	.	.	.	.
!	!	!	!	!	!	!	!	!	!	!	!	!LO:LB:g=original
=50	=50	=50	=50	=50	=50	=50	=50	=50	=50	=50	=50	=50
8e\L	16e/LL	.	8b\L	.	8e\	-bi-	8E/	-bi-	8b\	-bi-	4e/	4e/
.	16e/	.	.	.	.	.	.	.	.	.	.	.
!	!	!	!LO:TX:t=P:problem=niejednoznaczny zapis ♯	!	!	!	!	!	!	!	!	!
16E\L	16e/	.	8gg#X\	.	16E\LL	-li-	8E/	-li-	8b\	-li-	.	.
!LO:SIC:v:s=16F#	!	!	!	!	!	!	!	!	!	!	!	!
16F\	16e/	.	.	.	16F#X\JJ	.	.	.	.	.	.	.
16G#X\	16e/	.	8b\J	.	16G#X\LL	-um	8E/	-um	8b\	-um	8r	8r
16E\JJ	16e/JJ	.	.	.	16E\JJ	.	.	.	.	.	.	.
=51	=51	=51	=51	=51	=51	=51	=51	=51	=51	=51	=51	=51
!LO:SIC:s=8FnL	!	!	!	!	!	!	!	!	!	!	!	!LO:TX:t=P:problem=takt wyblakły, uwzględniono zgodnie z tr 2
8F\L	16c/LL	.	8a\L	.	8Fn\L	su-	4.c\	su-	4.a\	su-	4cc\	4e/
.	16c/	.	.	.	.	.	.	.	.	.	.	.
!	!	!	!LO:SIC:s=8ff	!	!	!	!	!	!	!	!	!
16F\L	16c/	.	8ffn\	.	16F\L	.	.	.	.	.	.	.
16Gn\	16c/	.	.	.	16Gn\	.	.	.	.	.	.	.
16A\	16c/	.	8a\J	.	16A\	.	.	.	.	.	8r	8r
16B\JJ	16c/JJ	.	.	.	16B\JJ	.	.	.	.	.	.	.
=52	=52	=52	=52	=52	=52	=52	=52	=52	=52	=52	=52	=52
!	!	!	!LO:SIC:s=8gL	!	!	!	!	!	!	!	!	!
!LO:TX:t=P:problem=mixed beam	!	!	!LO:TX:t=P:problem=mixed beam	!	!LO:TX:t=P:problem=mixed beam	!	!	!	!	!	!	!
8c\L	16c/LL	.	8gn/L	.	8c\L	-o-	4.c\	-o-	4.g\	-o-	4cc\	4cc\
.	16c/	.	.	.	.	.	.	.	.	.	.	.
!	!	!	!LO:TX:t=P:problem=nieczytelny zapis, przyjęto 8ee	!	!	!	!	!	!	!	!	!
16C/L	16c/	.	8ee\	.	16C/L	.	.	.	.	.	.	.
16D/	16c/	.	.	.	16D/	.	.	.	.	.	.	.
16E/	16c/	.	8g/J	.	16E/	.	.	.	.	.	8r	8r
16C/JJ	16c/JJ	.	.	.	16C/JJ	.	.	.	.	.	.	.
!LO:LB:g=original	!	!	!	!	!LO:LB:g=original	!	!	!	!	!	!	!
=53	=53	=53	=53	=53	=53	=53	=53	=53	=53	=53	=53	=53
8D/L	8b\L	.	8ff\	.	8D/L	.	4.d\	.	4.ff\	.	8dd\L	8ff\L
8BB/	8dd\	.	4ff\	.	8BB/	.	.	.	.	.	16dd\L	16ff\L
.	.	.	.	.	.	.	.	.	.	.	16dd\	16ff\
8GG/J	8dd\J	.	.	.	8GG/J	.	.	.	.	.	16dd\	16ff\
.	.	.	.	.	.	.	.	.	.	.	16dd\JJ	16ff\JJ
!	!	!	!	!	!	!	!LO:LB:g=original	!	!	!	!	!
=54	=54	=54	=54	=54	=54	=54	=54	=54	=54	=54	=54	=54
.	8qqdd/	.	8qqff/	.	.	.	.	.	.	.	.	.
8C\L	4cc\	.	4ee\	.	8C/	-rum	4c\	-rum	4ee\	-rum	4cc\	4ee\
8E\	.	.	.	.	8r	.	.	.	.	.	.	.
8G\J	8dd\	.	8gg\	.	8G\	mi-	8G\	mi-	8dd\	mi-	8g\	8dd\
!	!LO:LB:g=original	!	!	!	!	!	!	!	!	!	!	!
=55	=55	=55	=55	=55	=55	=55	=55	=55	=55	=55	=55	=55
4c\	4ee\	.	4gg\	.	8c\	-se-	8G\	-se-	8ee\	-se-	4cc\	4ee\
.	.	.	.	.	8c\	-ri-	8G\	-ri-	8ee\	-ri-	.	.
8B\	8dd\	.	8gg\	.	8B\	-cors	8G\	-corſ	8dd\	-cors	8g\	8dd\
!	!	!	!	!	!	!	!	!	!LO:LB:g=original	!	!	!
=56	=56	=56	=56	=56	=56	=56	=56	=56	=56	=56	=56	=56
4c\	4ee\	.	4gg\	.	8c\	et	8G\	et	8ee\	et	4cc\	4ee\
.	.	.	.	.	8c\	mi-	8G\	mi-	8ee\	mi-	.	.
8B\	8dd\	.	8gg\	.	8B\	-se-	8G\	-se-	8dd\	-se-	8g\	8dd\
=57	=57	=57	=57	=57	=57	=57	=57	=57	=57	=57	=57	=57
!LO:TX:t=P:problem=mixed beam	!	!	!	!	!	!	!	!	!	!	!	!
8c\L	8ee\L	.	8gg\L	.	4c\	-ra-	4G\	-ra-	4ee\	-ra-	8cc\L	8ee\L
8C/	16ee\L	.	16ccc\L	.	.	.	.	.	.	.	16cc\L	16ee\L
.	16ee\	.	16ccc\	.	.	.	.	.	.	.	16cc\	16ee\
8C/J	16ee\	.	16ccc\	.	8C/	-tor	8c\	-tor	8ee\	-tor	16cc\	16ee\
.	16ee\JJ	.	16ccc\JJ	.	.	.	.	.	.	.	16cc\JJ	16ee\JJ
=58	=58	=58	=58	=58	=58	=58	=58	=58	=58	=58	=58	=58
8.G\L	8.dd\L	.	8.bb\L	.	8.G\	Do-	8.B\	Do-	8.dd\	Do-	8.g/L	8.dd\L
16G\K	16dd\K	.	16bb\K	.	16G\	-mi-	16B\	-mi-	16dd\	-mi-	16g/K	16dd\K
8G\J	8dd\J	.	8bb\J	.	8G\	-nuſ	8B\	-nuſ	8dd\	-nuſ	8g/J	8dd\J
!	!	!	!LO:LB:g=original	!	!	!	!	!	!	!	!	!
=59	=59	=59	=59	=59	=59	=59	=59	=59	=59	=59	=59	=59
8c\L	8ee\L	.	8gg\L	.	8c\L	es-	8c\L	es-	8ee\L	es-	4cc\	4ee\
8B\	8dd\	.	8gg\	.	8B\J	.	8d\J	.	8dd\J	.	.	.
8A\J	8ee\J	.	8ccc\J	.	8A\	-cam	8e\	-cam	8cc\	-cam	8r	8r
=60	=60	=60	=60	=60	=60	=60	=60	=60	=60	=60	=60	=60
.	8qqee/	.	8qqccc/	.	.	.	.	.	.	.	.	.
8G\L	4dd\	.	4bb\	.	8G\L	de-	4d\	de-	4dd\	de-	8g\L	8dd\L
8F\	.	.	.	.	8F\J	.	.	.	.	.	8g\	8dd\
8E\J	8ee\	.	8ccc\	.	8E\	-dit	8e\	-dit	8ee\	-dit	8cc\J	8ee\J
=61	=61	=61	=61	=61	=61	=61	=61	=61	=61	=61	=61	=61
!LO:TX:t=P:problem=mixed beam	!	!	!	!	!	!	!	!	!	!	!	!
8C\L	8g\L	.	8ee\L	.	8C\	ti-	8c\	ti-	8ee\	ti-	8cc\L	8ee\L
8G\	8b\	.	8dd\	.	8G\	-men-	8B\	-men-	8dd\	-men-	8g\	8dd\
8GG/J	8dd\J	.	8bb\J	.	16GG/	-ti-	16B\	-ti-	16dd\	-ti-	8g\J	8dd\J
.	.	.	.	.	16GG/	-bus	16B\	-buſ	16dd\	-buſ	.	.
=62	=62	=62	=62	=62	=62	=62	=62	=62	=62	=62	=62	=62
.	.	.	8qqbb/	.	.	.	.	.	.	.	.	.
!	!	!	!	!	!	!LO:SIC:s=se.	!	!LO:SIC:s=se.	!	!LO:SIC:s=se.	!	!
8C\L	4ee\	.	4ccc\	.	4C/	se	4c\	se	4ee\	se	8cc\	8ee\
8E\	.	.	.	.	.	.	.	.	.	.	8r	8r
8C\J	8ee\	.	8gg\	.	8r	.	8r	.	8r	.	8ee\	8gg\
=63	=63	=63	=63	=63	=63	=63	=63	=63	=63	=63	=63	=63
!	!	!	!	!	!LO:N:vis=00	!	!LO:N:vis=00	!	!LO:N:vis=00	!	!	!
8F\L	8cc\	.	4.aa\	.	1.r	.	1.r	.	1.r	.	4.ff\	4.aa\
8D\	4ee\	.	.	.	.	.	.	.	.	.	.	.
8BB\J	.	.	.	.	.	.	.	.	.	.	.	.
=64	=64	=64	=64	=64	=64	=64	=64	=64	=64	=64	=64	=64
8E\L	8b\	.	4.gg\	.	.	.	.	.	.	.	4.ee\	4.gg\
8C\	4ee\	.	.	.	.	.	.	.	.	.	.	.
8AA\J	.	.	.	.	.	.	.	.	.	.	.	.
=65	=65	=65	=65	=65	=65	=65	=65	=65	=65	=65	=65	=65
8D/L	8a\	.	4.ff\	.	.	.	.	.	.	.	4.dd\	4.ff\
8BB/	4dd\	.	.	.	.	.	.	.	.	.	.	.
8GG/J	.	.	.	.	.	.	.	.	.	.	.	.
=66	=66	=66	=66	=66	=66	=66	=66	=66	=66	=66	=66	=66
8C\L	16ee\LL	.	16ee\LL	.	.	.	.	.	.	.	4cc\	4ee\
.	16ccc\	.	16ccc\	.	.	.	.	.	.	.	.	.
8D\	16bb\	.	16bb\	.	.	.	.	.	.	.	.	.
.	16aa\	.	16aa\	.	.	.	.	.	.	.	.	.
8E\J	16gg\	.	16gg\	.	.	.	.	.	.	.	8r	8r
.	16ff\JJ	.	16ff\JJ	.	.	.	.	.	.	.	.	.
=67	=67	=67	=67	=67	=67	=67	=67	=67	=67	=67	=67	=67
*	*Xtuplet	*	*tuplet	*	*	*	*	*	*	*	*	*
!LO:TX:t=P:problem=mixed beam	!	!	!LO:TUP:a	!	!LO:N:vis=00	!	!LO:N:vis=00	!	!LO:N:vis=0	!	!	!
8F\L	24ee\LL	.	24ee\LL	.	1.r	.	1.r	.	2.r	.	8r	8r
.	24dd\	.	24dd\	.	.	.	.	.	.	.	.	.
.	24cc\JJ	.	24cc\JJ	.	.	.	.	.	.	.	.	.
!	!LO:SIC:s=4ddT	!	!LO:SIC:s=4ddT	!	!	!	!	!	!	!	!	!
!	!LO:TX:a:mod= :t=t	!	!LO:TX:a:mod= :t=t	!	!	!	!	!	!	!	!	!
8G\	4dd\	.	4dd\	.	.	.	.	.	.	.	8g/L	8dd\L
8GG/J	.	.	.	.	.	.	.	.	.	.	16g/L	16dd\L
.	.	.	.	.	.	.	.	.	.	.	16g/JJ	16dd\JJ
!	!	!	!	!	!	!	!	!	!	!	!LO:LB:g=original	!
=68	=68	=68	=68	=68	=68	=68	=68	=68	=68	=68	=68	=68
8C/L	4cc\	.	4cc\	.	.	.	.	.	.	.	4e/	4cc\
8C/	.	.	.	.	.	.	.	.	.	.	.	.
8BB/J	8r	.	8r	.	.	.	.	.	.	.	8r	8r
=69	=69	=69	=69	=69	=69	=69	=69	=69	=69	=69	=69	=69
!	!	!	!	!	!	!	!	!	!	!	!LO:N:vis=00	!LO:N:vis=00
8AA/L	8cc\L	.	8ee\L	.	.	.	.	.	8ee\	Me-	1.r	1.r
8AA/	8cc\	.	8ee\	.	.	.	.	.	4ee\	-mor	.	.
8AA/J	8cc\J	.	8ee\J	.	.	.	.	.	.	.	.	.
=70	=70	=70	=70	=70	=70	=70	=70	=70	=70	=70	=70	=70
!	!	!	!LO:SIC:v:s=8ffL	!	!	!	!	!	!	!	!	!
8AA/L	8dd\L	.	8ee\L	.	.	.	.	.	8ff\	e-	.	.
.	.	.	.	.	.	.	.	.	8qqff/	.	.	.
8AA/	8cc\	.	8ee\	.	.	.	.	.	4ee\	-rit	.	.
8AA/J	8cc\J	.	8ee\J	.	.	.	.	.	.	.	.	.
=71	=71	=71	=71	=71	=71	=71	=71	=71	=71	=71	=71	=71
!LO:TX:t=P:problem=mixed beam	!	!	!	!	!LO:N:vis=00	!	!LO:N:vis=00	!	!	!	!	!
8AA/L	8cc\L	.	8ee\L	.	1.r	.	1.r	.	16aa\LL	in	.	.
.	.	.	.	.	.	.	.	.	16gg#X\JJ	.	.	.
8E\	8b\	.	8dd\	.	.	.	.	.	16bb\LL	ſae-	.	.
.	.	.	.	.	.	.	.	.	16gg#X\JJ	.	.	.
8EE/J	8b\J	.	8dd\J	.	.	.	.	.	16ee\	-cu-	.	.
.	.	.	.	.	.	.	.	.	16dd\	-lum	.	.
!LO:LB:g=original	!	!	!	!	!	!	!	!	!	!	!	!
=72	=72	=72	=72	=72	=72	=72	=72	=72	=72	=72	=72	=72
!	!LO:SIC:s=(16aLL	!	!	!	!	!	!	!	!	!	!	!
8AA/L	16a/LL	.	(16cc\LL	.	.	.	.	.	16cc\	ſae-	.	.
!	!LO:SIC:s=16g#J)	!	!	!	!	!	!	!	!	!	!	!
.	16g#X/J	.	16b\J)	.	.	.	.	.	16b\	-cu-	.	.
8C/	8a/J	.	8a\J	.	.	.	.	.	8a\	-li	.	.
8E/J	8r	.	8r	.	.	.	.	.	8r	.	.	.
=73	=73	=73	=73	=73	=73	=73	=73	=73	=73	=73	=73	=73
!	!	!	!	!	!	!	!	!	!	!	!LO:N:vis=00	!LO:N:vis=00
8A\L	8r	.	8r	.	.	.	.	.	4cc\	te-	1.r	1.r
8A\	8a/L	.	8cc\L	.	.	.	.	.	.	.	.	.
8G\J	8a/J	.	8cc\J	.	.	.	.	.	8cc\	-sta-	.	.
=74	=74	=74	=74	=74	=74	=74	=74	=74	=74	=74	=74	=74
4F\	8r	.	8r	.	.	.	.	.	4aa\	-men-	.	.
.	8a/L	.	8cc\L	.	.	.	.	.	.	.	.	.
8E\	8a/J	.	8cc\J	.	.	.	.	.	8cc\	-ti	.	.
!	!LO:LB:g=original	!	!	!	!	!	!	!	!	!	!	!
=75	=75	=75	=75	=75	=75	=75	=75	=75	=75	=75	=75	=75
!	!	!	!	!	!	!	!	!	!LO:SIC:s=4.ccT	!	!	!
!	!	!	!	!	!	!	!	!	!LO:TX:a:mod= :t=t	!	!	!
!	!	!	!	!	!LO:N:vis=00	!	!LO:N:vis=00	!	!LO:TX:t=P:problem=nieczytelna nuta, zgodnie z przednutką przyjęto 4.cc	!	!	!
4.D#X\	8r	.	8r	.	1.r	.	1.r	.	4.cc\	su-	.	.
.	8a/L	.	8cc\L	.	.	.	.	.	.	.	.	.
.	8a/J	.	8cc\J	.	.	.	.	.	.	.	.	.
!	!	!	!	!	!	!	!	!	!LO:LB:g=original	!	!	!
=76	=76	=76	=76	=76	=76	=76	=76	=76	=76	=76	=76	=76
.	.	.	.	.	.	.	.	.	8qqcc/	.	.	.
4E\	16g#X/LL	.	16b\LL	.	.	.	.	.	4b\	-i	.	.
.	16f#X/JJ	.	16dd#X\JJ	.	.	.	.	.	.	.	.	.
.	8qqf#/	.	8qqdd#/	.	.	.	.	.	.	.	.	.
.	4g#/	.	4ee\	.	.	.	.	.	.	.	.	.
8r	.	.	.	.	.	.	.	.	8r	.	.	.
=77	=77	=77	=77	=77	=77	=77	=77	=77	=77	=77	=77	=77
!	!	!	!	!	!	!	!	!	!	!	!LO:N:vis=00	!LO:N:vis=00
8E\L	8b\L	.	8ddn\L	.	.	.	.	.	8dd\	vir-	1.r	1.r
8B\	8b\	.	8dd\	.	.	.	.	.	8dd\	-tu-	.	.
8G#X\J	8b\J	.	8dd\J	.	.	.	.	.	8dd\	-tem	.	.
=78	=78	=78	=78	=78	=78	=78	=78	=78	=78	=78	=78	=78
8E\	8b\L	.	8dd\L	.	.	.	.	.	8dd\	o-	.	.
!	!	!	!LO:SIC:s=(16bL	!	!	!	!	!	!	!	!	!
8r	(16g#X\L	.	16b\L	.	.	.	.	.	16b\LL	-pe-	.	.
!	!	!	!LO:SIC:s=16ccJ)	!	!	!	!	!	!	!	!	!
.	16a\J)	.	16cc\J	.	.	.	.	.	16cc\JJ	.	.	.
8r	8b\J	.	8dd\J	.	.	.	.	.	8dd\	-rum	.	.
!	!	!	!LO:LB:g=original	!	!	!	!	!	!	!	!	!
=79	=79	=79	=79	=79	=79	=79	=79	=79	=79	=79	=79	=79
!	!	!	!	!	!LO:N:vis=00	!	!LO:N:vis=00	!	!	!	!	!
8E\L	8b\L	.	8dd\L	.	1.r	.	1.r	.	4.dd\	su-	.	.
8G#X\	8b\	.	8dd\	.	.	.	.	.	.	.	.	.
8E\J	8b\J	.	8dd\J	.	.	.	.	.	.	.	.	.
=80	=80	=80	=80	=80	=80	=80	=80	=80	=80	=80	=80	=80
.	8qqdd/	.	8qqdd/	.	.	.	.	.	8qqdd/	.	.	.
!LO:TX:t=P:problem=mixed beam	!	!	!	!	!	!	!	!	!	!	!	!
8A\L	8cc\L	.	8cc\L	.	.	.	.	.	8cc\	-o-	.	.
8E\	8b\J	.	8b\J	.	.	.	.	.	8b\	-rum	.	.
8AA/J	8r	.	8r	.	.	.	.	.	8r	.	.	.
=81	=81	=81	=81	=81	=81	=81	=81	=81	=81	=81	=81	=81
!	!LO:N:vis=00	!	!LO:N:vis=00	!	!	!	!	!	!	!LO:SIC:s=an-	!LO:N:vis=00	!LO:N:vis=00
8AA/L	1.r	.	1.r	.	.	.	.	.	8ee\	a-	1.r	1.r
8C/	.	.	.	.	.	.	.	.	8a\	-nun-	.	.
8D/J	.	.	.	.	.	.	.	.	8ff\	-ti-	.	.
=82	=82	=82	=82	=82	=82	=82	=82	=82	=82	=82	=82	=82
.	.	.	.	.	.	.	.	.	8qqa/	.	.	.
8E\L	.	.	.	.	.	.	.	.	8g#X\	-a-	.	.
8D\	.	.	.	.	.	.	.	.	8g#\	-bit	.	.
8C\J	.	.	.	.	.	.	.	.	8a\	po-	.	.
=83	=83	=83	=83	=83	=83	=83	=83	=83	=83	=83	=83	=83
!	!	!	!	!	!LO:N:vis=0	!	!LO:N:vis=0	!	!	!	!	!
8D\L	.	.	.	.	2.r	.	2.r	.	16ff\	-pu-	.	.
.	.	.	.	.	.	.	.	.	16dd\	-lo	.	.
8E\	.	.	.	.	.	.	.	.	8cc\L	su-	.	.
8E\J	.	.	.	.	.	.	.	.	8b\J	.	.	.
=84	=84	=84	=84	=84	=84	=84	=84	=84	=84	=84	=84	=84
!LO:TX:t=P:problem=mixed beam	!	!	!	!	!	!	!	!	!	!LO:SIC:s=-o.	!	!
8A\L	.	.	.	.	.	.	.	.	4a\	-o	.	.
8E\	.	.	.	.	.	.	.	.	.	.	.	.
8AA/J	.	.	.	.	.	.	.	.	8r	.	.	.
!	!	!	!	!	!	!	!LO:PB:g=original	!	!	!	!	!LO:LB:g=original
=85	=85	=85	=85	=85	=85	=85	=85	=85	=85	=85	=85	=85
!	!	!	!LO:TX:a:i:mod= :t=Tutti	!	!	!LO:SIC:s=Ut	!	!LO:SIC:s=Ut	!	!LO:SIC:s=Ut	!	!
8AA/L	4cc\	.	4aa\	.	8AA/L	ut	4A\	ut	4cc\	ut	4e/	4e/
8C/	.	.	.	.	8C/J	.	.	.	.	.	.	.
8E/J	8b\	.	8gg#X\	.	8E\	det	8G#X\	det	8b\	det	16e/LL	16e/LL
.	.	.	.	.	.	.	.	.	.	.	16e/JJ	16e/JJ
!	!	!	!	!	!LO:LB:g=original	!	!	!	!	!	!	!
=86	=86	=86	=86	=86	=86	=86	=86	=86	=86	=86	=86	=86
8C/L	8cc\L	.	8aa\L	.	8C/	il-	8A\	il-	8cc\	il-	8e/L	8e/L
8AA/J	8cc\J	.	8aa\J	.	8AA/	-lis	8A\	-lis	8cc\	-liſ	8e/J	8e/J
8r	8r	.	8r	.	8r	.	8r	.	8r	.	8r	8r
=87	=87	=87	=87	=87	=87	=87	=87	=87	=87	=87	=87	=87
8C\L	4ee\	.	4ccc\	.	8C\L	ut	4c\	ut	4ee\	ut	4cc\	4ee\
8E\	.	.	.	.	8E\J	.	.	.	.	.	.	.
8G\J	8dd\	.	8bb\	.	8G\	det	8B\	det	8dd\	det	16g\LL	16dd\LL
.	.	.	.	.	.	.	.	.	.	.	16g\JJ	16dd\JJ
=88	=88	=88	=88	=88	=88	=88	=88	=88	=88	=88	=88	=88
8E\L	8ee\L	.	8ccc\L	.	8E\	il-	8c\	il-	8ee\	il-	8cc\L	8ee\L
8C\J	8ee\J	.	8ccc\J	.	8C\	-lis	8c\	-lis	8ee\	-liſ	8cc\J	8ee\J
8r	8r	.	8r	.	8r	.	8r	.	8r	.	8r	8r
=89	=89	=89	=89	=89	=89	=89	=89	=89	=89	=89	=89	=89
8C/L	8gg\L	.	8bb-X\L	.	8c\	hae-	8B-X\	hae-	8ee\	hae-	8cc\L	8ee\L
8C/	8gg\	.	8bb-\	.	8c\	-re-	8B-\	-re-	8ee\	-re-	8cc\	8ee\
8C/J	8gg\J	.	8bb-\J	.	8c\	-di-	8B-\	-di-	8ee\	-di-	8cc\J	8ee\J
!	!	!	!	!	!	!	!	!	!LO:LB:g=original	!	!	!
=90	=90	=90	=90	=90	=90	=90	=90	=90	=90	=90	=90	=90
!	!	!	!LO:SIC:v:s=8bb-L	!	!	!	!LO:SIC:v:s=4B-	!	!	!	!	!
8C/L	8gg\L	.	8bb\L	.	4c\	-ta-	4B\	-ta-	4ee\	-ta-	8cc\L	8ee\L
!	!	!	!LO:SIC:v:s=8bb-	!	!	!	!	!	!	!	!	!
8C/	8gg\	.	8bb\	.	.	.	.	.	.	.	8cc\	8ee\
!	!	!	!LO:SIC:v:s=8bb-J	!	!	!	!LO:SIC:v:s=8B-	!	!	!	!	!
8C/J	8gg\J	.	8bb\J	.	8c\	-tem	8B\	-tem	8ee\	-tem	8cc\J	8ee\J
!LO:LB:g=original	!	!	!	!	!	!	!	!	!	!	!	!
=91	=91	=91	=91	=91	=91	=91	=91	=91	=91	=91	=91	=91
!	!LO:SIC:s=8ggL	!	!	!	!	!	!	!	!	!	!	!
!	!LO:TX:t=P:problem=niejednoznaczny zapis	!	!	!	!	!	!LO:SIC:v:s=4B-	!	!	!	!	!
8C/L	8ggn\L	.	8bb-X\L	.	4c\	gen-	4B\	gen-	4ee\	gen-	8cc\L	8ee\L
8C/	8gg\	.	8bb-\	.	.	.	.	.	.	.	8cc\	8ee\
!	!	!	!	!	!	!	!LO:SIC:v:s=8B-	!	!	!	!	!
8C/J	8gg\J	.	8bb-\J	.	8C/	-ti-	8B\	-ti-	8ee\	-ti-	8cc\J	8ee\J
=92	=92	=92	=92	=92	=92	=92	=92	=92	=92	=92	=92	=92
!	!	!	!LO:SIC:v:s=8qqbb-	!	!	!	!LO:SIC:v:s=8qqB-	!	!	!	!	!
.	8qqgg/	.	8qqaa/	.	.	.	8qqB/	.	8qqee/	.	.	.
8F\L	4ff\	.	4aa\	.	8F\	-um	4A\	-um	4ff\	-um	4cc\	4ff\
8G\	.	.	.	.	8r	.	.	.	.	.	.	.
8A\J	8f/	.	8cc\	.	8A\	o-	8A\	o-	8cc\	o-	8r	8r
=93	=93	=93	=93	=93	=93	=93	=93	=93	=93	=93	=93	=93
!	!	!	!	!	!	!	!	!	!	!	!LO:N:vis=00	!LO:N:vis=00
8B-X\L	8f/L	.	4dd\	.	8B-X\	.	8.F\	.	8.dd\	.	1.r	1.r
!	!LO:SIC:v:s=8b-	!	!	!	!	!	!	!	!	!	!	!
8G\	8b/	.	.	.	8G\	-pe-	.	.	.	.	.	.
.	.	.	.	.	.	.	16F\	-pe-	16dd\	-pe-	.	.
!	!LO:SIC:v:s=8b-J	!	!	!	!	!	!LO:SIC:v:s=8B-	!	!	!	!	!
8c\J	8b/J	.	8ee\	.	8c\	-ra	8B\	-ra	8ee\	-ra	.	.
=94	=94	=94	=94	=94	=94	=94	=94	=94	=94	=94	=94	=94
!	!LO:SIC:v:s=8qqb-	!	!	!	!	!	!	!	!	!	!	!
.	8qqb/	.	8qqee/	.	.	.	.	.	.	.	.	.
8A\L	4a/	.	4ff\	.	8A\	ma-	8A\	ma-	8ff\	ma-	.	.
8F\	.	.	.	.	8F\	-nu-	8A\	-nu-	8ff\	-nu-	.	.
8A\J	8f/	.	8cc\	.	8A\	-um	8F\	-um	8cc\	-um	.	.
=95	=95	=95	=95	=95	=95	=95	=95	=95	=95	=95	=95	=95
8B-X\L	8f/L	.	4dd\	.	8B-X\L	e-	4F\	e-	4dd\	e-	.	.
!	!LO:SIC:v:s=8b-	!	!	!	!	!	!	!	!	!	!	!
8G\	8b/	.	.	.	8G\J	.	.	.	.	.	.	.
!	!LO:SIC:v:s=8b-J	!	!	!	!	!	!LO:SIC:v:s=8B-	!	!	!	!	!
8c\J	8b/J	.	8ee\	.	8c\	-jus	8B\	-jus	8ee\	-juſ	.	.
=96	=96	=96	=96	=96	=96	=96	=96	=96	=96	=96	=96	=96
8F\L	8a\L	.	8ff\L	.	8F\	ve-	8A\	ve-	8ff\	ve-	.	.
!	!LO:SIC:v:s=8b-	!	!	!	!	!	!LO:SIC:v:s=8B-	!	!	!	!	!
8G\	8b\	.	(16ee\L	.	8G\	-ri-	8B\	-ri-	16ee\LL	-ri-	.	.
.	.	.	16dd\J)	.	.	.	.	.	16dd\JJ	.	.	.
8A\J	8cc\J	.	8cc\J	.	8A\	-taſ	8c\	-tas	8cc\	-taſ	.	.
!	!LO:LB:g=original	!	!	!	!	!	!	!	!	!	!	!
=97	=97	=97	=97	=97	=97	=97	=97	=97	=97	=97	=97	=97
!LO:SIC:v:s=8B-L	!	!	!	!	!	!	!	!	!	!	!	!
!LO:TX:t=P:problem=mixed beam	!	!	!	!	!LO:SIC:v:s=16B-	!	!	!	!	!	!LO:N:vis=00	!LO:N:vis=00
8B\L	16.dd\LL	.	16dd\LL	.	16B\	et	16d\	et	16dd\	et	1.r	1.r
!	!	!	!	!	!LO:SIC:v:s=16B-	!	!LO:SIC:v:s=16B-	!	!	!	!	!
.	.	.	16gg\JJ	.	16B\	ju-	16B\	ju-	16gg\	ju-	.	.
!	!LO:SIC:v:s=32b-JJk	!	!	!	!	!	!	!	!	!	!	!
.	32b\JJk	.	.	.	.	.	.	.	.	.	.	.
.	8qqa/	.	8qqff/	.	.	.	8qqA/	.	8qqff/	.	.	.
!	!	!	!LO:SIC:s=4eet	!	!	!	!	!	!	!	!	!
!	!	!	!LO:TX:a:mod= :t=t	!	!	!	!	!	!	!	!	!
8c\	4g/	.	4ee\	.	8c\	-di-	8.G\	-di-	8.ee\	-di-	.	.
8C/J	.	.	.	.	8C/	-ci-	.	.	.	.	.	.
.	.	.	.	.	.	.	16G\	-ci-	16ee\	-ci-	.	.
!	!	!	!	!	!LO:LB:g=original	!	!LO:LB:g=original	!	!	!	!	!
=98	=98	=98	=98	=98	=98	=98	=98	=98	=98	=98	=98	=98
.	8qqg/	.	8qqee/	.	.	.	8qqG/	.	8qqee/	.	.	.
!	!	!	!	!	!	!LO:SIC:s=-um.	!	!LO:SIC:s=-um.	!	!LO:SIC:s=-um.	!	!
8F\L	8a/	.	8ff\	.	4F\	-um	4A\	-um	4ff\	-um	.	.
!	!LO:SIC:v:s=4b-	!	!	!	!	!	!	!	!	!	!	!
8F\	4b\	.	4dd\	.	.	.	.	.	.	.	.	.
8F\J	.	.	.	.	8r	.	8r	.	8r	.	.	.
=99	=99	=99	=99	=99	=99	=99	=99	=99	=99	=99	=99	=99
!LO:TX:t=P:problem=mixed beam	!	!	!	!	!LO:N:vis=00	!	!LO:N:vis=00	!	!LO:N:vis=00	!	!	!
8F\L	8a/	.	8cc\	.	1.r	.	1.r	.	1.r	.	.	.
.	8qqa/	.	8qqcc/	.	.	.	.	.	.	.	.	.
!	!	!	!LO:SIC:v:s=4b-	!	!	!	!	!	!	!	!	!
8c\	4g/	.	4b\	.	.	.	.	.	.	.	.	.
8C/J	.	.	.	.	.	.	.	.	.	.	.	.
=100	=100	=100	=100	=100	=100	=100	=100	=100	=100	=100	=100	=100
8F\L	8f/	.	8a/	.	.	.	.	.	.	.	.	.
!	!	!	!LO:SIC:v:s=4b-	!	!	!	!	!	!	!	!	!
8F\	4d/	.	4b/	.	.	.	.	.	.	.	.	.
8F\J	.	.	.	.	.	.	.	.	.	.	.	.
!	!	!	!LO:LB:g=original	!	!	!	!	!	!	!	!	!
=101	=101	=101	=101	=101	=101	=101	=101	=101	=101	=101	=101	=101
!LO:TX:t=P:problem=mixed beam	!	!	!	!	!	!	!	!	!	!	!LO:N:vis=00	!LO:N:vis=00
8F\L	8c/	.	8a/	.	.	.	.	.	.	.	1.r	1.r
.	8qqd/	.	8qqa/	.	.	.	.	.	.	.	.	.
!	!LO:SIC:v:s=4B-	!	!	!	!	!	!	!	!	!	!	!
8c\	4B/	.	4g/	.	.	.	.	.	.	.	.	.
8C/J	.	.	.	.	.	.	.	.	.	.	.	.
=102	=102	=102	=102	=102	=102	=102	=102	=102	=102	=102	=102	=102
!	!LO:TX:t=P:problem=mixed beam	!	!LO:TX:t=P:problem=mixed beam	!	!	!	!	!	!	!	!	!
8F\L	(>16A/LL	.	(16f/LL	.	.	.	.	.	.	.	.	.
.	16ff\)	.	16ff\)	.	.	.	.	.	.	.	.	.
8G\	(>16ee\	.	(16ee\	.	.	.	.	.	.	.	.	.
.	16dd\)	.	16dd\)	.	.	.	.	.	.	.	.	.
8A\J	(>16cc\	.	(16cc\	.	.	.	.	.	.	.	.	.
.	16ff\JJ)	.	16ff\JJ)	.	.	.	.	.	.	.	.	.
=103	=103	=103	=103	=103	=103	=103	=103	=103	=103	=103	=103	=103
!LO:TX:t=P:problem=mixed beam	!LO:SIC:v:s=16b-LL	!	!LO:SIC:v:s=(16b-LL	!	!LO:N:vis=00	!	!LO:N:vis=1	!	!LO:N:vis=00	!	!	!
8B-X\L	16b/LL	.	(16b/LL	.	1.r	.	4.r	.	1.r	.	.	.
.	16g/JJ	.	16g/JJ)	.	.	.	.	.	.	.	.	.
.	8qqf/	.	8qqf/	.	.	.	.	.	.	.	.	.
8c\	4e/	.	4e/	.	.	.	.	.	.	.	.	.
8C/J	.	.	.	.	.	.	.	.	.	.	.	.
=104	=104	=104	=104	=104	=104	=104	=104	=104	=104	=104	=104	=104
.	8qqe/	.	8qqe/	.	.	.	.	.	.	.	.	.
!	!	!	!	!	!	!	!LO:TX:a:i:mod: t=Solo	!	!	!	!	!
4F\	4f/	.	4f/	.	.	.	8r	.	.	.	.	.
.	.	.	.	.	.	.	8r	.	.	.	.	.
8r	8r	.	8r	.	.	.	8c\	Fi-	.	.	.	.
=105	=105	=105	=105	=105	=105	=105	=105	=105	=105	=105	=105	=105
.	.	.	.	.	.	.	8qqB-X/	.	.	.	.	.
!	!	!LO:DY:a:t=pia	!	!LO:DY:a:t=pia	!	!	!	!	!	!	!LO:N:vis=00	!LO:N:vis=00
8F\L	8a\L	p	8cc\L	p	.	.	16A/	-de-	.	.	1.r	1.r
.	.	.	.	.	.	.	16G/	-li-	.	.	.	.
8F\	8a\	.	8cc\	.	.	.	4F/	-a	.	.	.	.
8F\J	8a\J	.	8cc\J	.	.	.	.	.	.	.	.	.
=106	=106	=106	=106	=106	=106	=106	=106	=106	=106	=106	=106	=106
8F\L	8b-X\L	.	8dd\L	.	.	.	8d\	om-	.	.	.	.
8F\	8b-\	.	8dd\	.	.	.	8d\	-ni-	.	.	.	.
8F\J	8b-\J	.	8dd\J	.	.	.	8d\	-a	.	.	.	.
=107	=107	=107	=107	=107	=107	=107	=107	=107	=107	=107	=107	=107
.	.	.	.	.	.	.	8qqc/	.	.	.	.	.
!	!	!	!	!	!LO:N:vis=00	!	!	!	!LO:N:vis=00	!	!	!
8C/L	8g/L	.	8b-X\L	.	1.r	.	16B-X\LL	man-	1.r	.	.	.
.	.	.	.	.	.	.	16e\JJ	.	.	.	.	.
8C/	8g/	.	8b-\	.	.	.	8g\	-da-	.	.	.	.
8C/J	8g/J	.	8b-\J	.	.	.	8B-\	-ta	.	.	.	.
!LO:LB:g=original	!	!	!	!	!	!	!	!	!	!	!	!
=108	=108	=108	=108	=108	=108	=108	=108	=108	=108	=108	=108	=108
!	!	!	!	!	!	!	!LO:SIC:v:s=4B-T	!	!	!	!	!
!	!	!	!	!	!	!	!LO:TX:t=P:problem=przyjęto trillo	!	!	!	!	!
!LO:TX:t=P:problem=mixed beam	!	!	!LO:SIC:v:s=8b-L	!	!	!	!LO:TX:a:mod= :t=t	!	!	!	!	!
8C/L	8g/L	.	8b\L	.	.	.	4B\	e-	.	.	.	.
!	!	!	!LO:SIC:v:s=8b-	!	!	!	!	!	!	!	!	!
8C/	8g/	.	8b\	.	.	.	.	.	.	.	.	.
8F\J	8f/J	.	8a\J	.	.	.	8A\	-jus	.	.	.	.
=109	=109	=109	=109	=109	=109	=109	=109	=109	=109	=109	=109	=109
!	!	!	!	!	!	!	!	!	!	!	!LO:N:vis=00	!LO:N:vis=00
8F\L	8c/L	.	4a\	.	.	.	4A\	con-	.	.	1.r	1.r
8D\	8f/	.	.	.	.	.	.	.	.	.	.	.
8G\J	8d/J	.	8bn\	.	.	.	8Bn\	-fir-	.	.	.	.
=110	=110	=110	=110	=110	=110	=110	=110	=110	=110	=110	=110	=110
!	!	!	!	!	!	!	!LO:SIC:s=16cLL	!	!	!	!	!
8E\L	8g/L	.	(16cc\LL	.	.	.	(16c\LL	-ma-	.	.	.	.
!	!	!	!	!	!	!	!LO:SIC:s=16BJJ	!	!	!	!	!
.	.	.	16b\JJ)	.	.	.	16B\JJ)	.	.	.	.	.
.	.	.	8qqb/	.	.	.	8qqB/	.	.	.	.	.
8D\	8f/	.	4cc\	.	.	.	4c\	-ta	.	.	.	.
8C\J	8e/J	.	.	.	.	.	.	.	.	.	.	.
=111	=111	=111	=111	=111	=111	=111	=111	=111	=111	=111	=111	=111
!	!	!	!	!	!LO:N:vis=00	!	!	!	!LO:N:vis=00	!	!	!
8BB/L	8bn\L	.	8dd\L	.	1.r	.	8d\	in	1.r	.	.	.
8GG/	8dd\	.	8ff\	.	.	.	8f\	ſae-	.	.	.	.
8C/J	8cc\J	.	8ee\J	.	.	.	16e\	-cu-	.	.	.	.
.	.	.	.	.	.	.	16e\	-lum	.	.	.	.
=112	=112	=112	=112	=112	=112	=112	=112	=112	=112	=112	=112	=112
!	!	!	!LO:SIC:s=8eetL	!	!	!	!	!	!	!	!	!
!	!	!	!LO:TX:a:mod= :t=t	!	!	!	!	!	!	!	!	!
8G\L	8cc\L	.	8ee\L	.	.	.	16e\	ſae-	.	.	.	.
.	.	.	.	.	.	.	16e\	-cu-	.	.	.	.
16G\L	8b\J	.	8dd\J	.	.	.	8d\	-li	.	.	.	.
16F\	.	.	.	.	.	.	.	.	.	.	.	.
16E\	8r	.	8r	.	.	.	8r	.	.	.	.	.
16D\JJ	.	.	.	.	.	.	.	.	.	.	.	.
=113	=113	=113	=113	=113	=113	=113	=113	=113	=113	=113	=113	=113
!	!	!	!	!	!	!	!	!	!	!	!LO:N:vis=00	!LO:N:vis=00
8C/L	8e/L	.	8cc\L	.	.	.	8c\	fa-	.	.	1.r	1.r
8C/	8e/	.	8cc\	.	.	.	8c\	-cta	.	.	.	.
8C/J	8e/J	.	8cc\J	.	.	.	8c\	in	.	.	.	.
!	!	!	!	!	!	!	!LO:LB:g=original	!	!	!	!	!
=114	=114	=114	=114	=114	=114	=114	=114	=114	=114	=114	=114	=114
8C/L	8a/	.	8ff\	.	.	.	8f\	ve-	.	.	.	.
8C/	4a/	.	4ff\	.	.	.	4f\	-ri-	.	.	.	.
8C/J	.	.	.	.	.	.	.	.	.	.	.	.
!	!LO:LB:g=original	!	!	!	!	!	!	!	!	!	!	!
=115	=115	=115	=115	=115	=115	=115	=115	=115	=115	=115	=115	=115
!	!	!	!	!	!LO:N:vis=00	!	!	!	!LO:N:vis=00	!	!	!
8C/L	16g/LL	.	16ee\LL	.	1.r	.	16e\LL	-ta-	1.r	.	.	.
.	16f/JJ	.	16dd\JJ	.	.	.	16d\JJ	.	.	.	.	.
.	8qqf/	.	8qqdd/	.	.	.	8qqd/	.	.	.	.	.
8C/	4e/	.	4cc\	.	.	.	4c\	-te	.	.	.	.
8C/J	.	.	.	.	.	.	.	.	.	.	.	.
=116	=116	=116	=116	=116	=116	=116	=116	=116	=116	=116	=116	=116
8GG/L	8b\L	.	8ff\L	.	.	.	8f\	et	.	.	.	.
8BB/	8dd\	.	8ff\	.	.	.	8f\	ae-	.	.	.	.
8GG/J	8b\J	.	8ff\J	.	.	.	8f\	-qui-	.	.	.	.
=117	=117	=117	=117	=117	=117	=117	=117	=117	=117	=117	=117	=117
!	!	!	!	!	!	!	!	!	!	!	!LO:N:vis=0	!LO:N:vis=0
8C/L	8g/L	.	8ee\L	.	.	.	8e\L	-ta-	.	.	2.r	2.r
8D/	8f/	.	8dd\	.	.	.	8d\	.	.	.	.	.
8E/J	8e/J	.	8cc\J	.	.	.	8c\J	.	.	.	.	.
=118	=118	=118	=118	=118	=118	=118	=118	=118	=118	=118	=118	=118
!LO:TX:t=P:problem=mixed beam	!	!	!	!	!	!	!	!	!	!	!	!
8F\L	8a/	.	8dd\	.	.	.	8d\	.	.	.	.	.
.	8qqe/	.	8qqcc/	.	.	.	8qqc/	.	.	.	.	.
8G\	4d/	.	4b\	.	.	.	4B\	.	.	.	.	.
8GG/J	.	.	.	.	.	.	.	.	.	.	.	.
=119	=119	=119	=119	=119	=119	=119	=119	=119	=119	=119	=119	=119
.	8qqd/	.	8qqb/	.	.	.	.	.	.	.	.	.
!	!	!	!	!	!LO:N:vis=1	!	!	!LO:SIC:s=-te.	!LO:N:vis=1	!	!LO:N:vis=1	!LO:N:vis=1
8C/L	4.e/	.	4.cc\	.	4.r	.	4c\	-te	4.r	.	4.r	4.r
8GG/	.	.	.	.	.	.	.	.	.	.	.	.
8C/J	.	.	.	.	.	.	8r	.	.	.	.	.
!	!	!	!LO:LB:g=original	!	!	!	!	!	!	!	!	!
=120	=120	=120	=120	=120	=120	=120	=120	=120	=120	=120	=120	=120
8C\L	8ee\L	.	4ccc\	.	8C\	Re-	8G\	Re-	8ee\	Re-	4cc\	4ee\
8E\	8g\	.	.	.	8E\	-demp-	8G\	-demp-	8ee\	-demp-	.	.
8G\J	8dd\J	.	8bb\	.	8G\	-ti-	8B\	-ti-	8dd\	-ti-	8g\	8dd\
=121	=121	=121	=121	=121	=121	=121	=121	=121	=121	=121	=121	=121
8C\L	8ee\L	.	4ccc\	.	8c\L	-o-	4G\	-o-	4ee\	-o-	4cc\	4ee\
8E\	8g\	.	.	.	8E\J	.	.	.	.	.	.	.
8G\J	8dd\J	.	8bb\	.	8G\	-nem	8B\	-nem	8dd\	-nem	8g\	8dd\
=122	=122	=122	=122	=122	=122	=122	=122	=122	=122	=122	=122	=122
8C\L	8ee\L	.	8ccc\L	.	16C\	mi-	16c\	mi-	16ee\	mi-	8cc\L	8ee\L
.	.	.	.	.	16C\	-sit	16c\	-sit	16ee\	-sit	.	.
!	!	!	!	!	!	!	!	!	!LO:TX:t=P:problem=napis nad nutami - vedi?	!	!	!
8E\	16ee\L	.	16ccc\L	.	8E\	po-	8c\	po-	8ee\	po-	16cc\L	16ee\L
.	16ee\	.	16ccc\	.	.	.	.	.	.	.	16cc\	16ee\
8C\J	16ee\	.	16ccc\	.	16C\	-pu-	16c\	-pu-	16ee\	-pu-	16cc\	16ee\
.	16ee\JJ	.	16ccc\JJ	.	16C\	-lo	16c\	-lo	16ee\	-lo	16cc\JJ	16ee\JJ
!	!	!	!	!	!	!	!	!	!LO:LB:g=original	!	!	!
=123	=123	=123	=123	=123	=123	=123	=123	=123	=123	=123	=123	=123
!LO:TX:t=P:problem=mixed beam	!	!	!	!	!	!	!	!	!	!	!	!
8G\L	8dd\L	.	8bb\L	.	8G\	su-	8B\	su-	8dd\	su-	8g/L	8dd\L
8GG/	8dd\J	.	8bb\J	.	8GG/	-o	8B\	-o	8dd\	-o	8g/J	8dd\J
8G\J	8r	.	8r	.	8r	.	8r	.	8r	.	8r	8r
=124	=124	=124	=124	=124	=124	=124	=124	=124	=124	=124	=124	=124
8G\L	4b\	.	4dd\	.	4.G\	man-	4B\	man-	8dd\	man-	4g\	4dd\
8G\	.	.	.	.	.	.	.	.	4ee\	.	.	.
8G\J	8cc\	.	8ee\	.	.	.	8c\	.	.	.	8cc\	8ee\
!LO:LB:g=original	!	!	!	!	!	!	!	!	!	!	!	!
=125	=125	=125	=125	=125	=125	=125	=125	=125	=125	=125	=125	=125
8G\L	4dd\	.	4ff\	.	4G\	-da-	4d\	-da-	4ff\	-da-	4dd\	4ff\
8G\	.	.	.	.	.	.	.	.	.	.	.	.
8G\J	8cc\	.	8ee\	.	8G\	-vit	8c\	-vit	8ee\	-vit	8cc\	8ee\
=126	=126	=126	=126	=126	=126	=126	=126	=126	=126	=126	=126	=126
8G\L	4b\	.	4dd\	.	4G\	in	4B\	in	4dd\	in	4g/	4dd\
8G\	.	.	.	.	.	.	.	.	.	.	.	.
8G\J	8cc\	.	8ee\	.	8G\	ae-	8c\	ae-	8ee\	ae-	8cc\	8ee\
!	!	!	!	!	!	!	!LO:LB:g=original	!	!	!	!LO:LB:g=original	!
=127	=127	=127	=127	=127	=127	=127	=127	=127	=127	=127	=127	=127
8G\L	4dd\	.	4ff\	.	4G\	-ter-	4d\	-ter-	4ff\	-ter-	4dd\	4ff\
8G\	.	.	.	.	.	.	.	.	.	.	.	.
8C\J	8cc\	.	8ee\	.	8C\	-num	8c\	-num	8ee\	-num	8cc\	8ee\
=128	=128	=128	=128	=128	=128	=128	=128	=128	=128	=128	=128	=128
8c\L	8ee\L	.	8gg\L	.	8c\L	te-	4G\	te-	8ee\L	te-	4cc\	4ee\
8B\	8dd\	.	8gg\	.	8B\J	.	.	.	8dd\J	.	.	.
8A\J	8ee\J	.	8ccc\J	.	8A\	-sta-	8e\	-sta-	8cc\	-sta-	8r	8r
=129	=129	=129	=129	=129	=129	=129	=129	=129	=129	=129	=129	=129
.	8qqee/	.	8qqccc/	.	.	.	.	.	8qqcc	.	.	.
8G\L	4dd\	.	4bb\	.	8G\L	-men-	4d\	-men-	4b\	-men-	8g\L	8dd\L
8F\	.	.	.	.	8F\J	.	.	.	.	.	8g\	8dd\
!	!	!	!	!	!	!	!	!LO:SIC:s=-tum	!	!LO:SIC:s=-tum	!	!
8E\J	8ee\	.	8ccc\	.	8E\	-tum	8e\	-t(um)	8cc\	-ti	8cc\J	8ee\J
!	!	!	!	!	!	!	!	!	!	!	!	!LO:LB:g=original
=130	=130	=130	=130	=130	=130	=130	=130	=130	=130	=130	=130	=130
!LO:TX:t=P:problem=mixed beam	!	!	!	!	!LO:TX:t=P:problem=mixed beam	!	!	!	!	!	!	!
8C\L	8g\L	.	8ee\L	.	8C\L	ſu-	8c\	su-	8ee\	su-	8cc\L	8ee\L
8G\	8b\	.	8dd\	.	8G\	.	4B\	.	4dd\	.	8g\	8dd\
8GG/J	8dd\J	.	8bb\J	.	8GG/J	.	.	.	.	.	8g\J	8dd\J
!	!	!	!	!	!LO:LB:g=original	!	!	!	!	!	!	!
=131	=131	=131	=131	=131	=131	=131	=131	=131	=131	=131	=131	=131
!	!	!	!	!	!	!LO:SIC:s=-um.	!	!LO:SIC:s=-um.	!	!LO:SIC:s=-um.	!	!LO:SIC:s=4ee
4C	4ee\	.	4ccc\	.	4C/	-um	4c\	-um	4ee\	-i	4cc\	4ee;\
!	!	!	!	!	!	!	!	!	!	!	!	!LO:SIC:s=8r;
8r;	8r;	.	8r;	.	8r;	.	8r;	.	8r;	.	8r;	8r
!	!LO:LB:g=original	!	!	!	!	!	!	!	!	!	!	!
!LO:MO:mod==132||	!LO:MO:mod==132||	!LO:MO:mod==132||	!LO:MO:mod==132||	!LO:MO:mod==132||	!LO:MO:mod==132||	!LO:MO:mod==132||	!LO:MO:mod==132||	!LO:MO:mod==132||	!LO:MO:mod==132||	!LO:MO:mod==132||	!LO:MO:mod==132||	!LO:MO:mod==132||
=132	=132	=132	=132	=132	=132	=132	=132	=132	=132	=132	=132	=132
!!!OMD:
!!!OMD-mod: Adagio
!LO:TX:a:Bi:mod= :t=Adagio	!LO:TX:a:Bi:mod= :t=Adagio	!	!LO:TX:a:Bi:mod= :t=Adagio	!	!LO:TX:a:Bi:mod= :t=Adagio	!LO:SIC:s=San-	!LO:TX:a:Bi:mod= :t=Adagio	!LO:SIC:s=San-	!LO:TX:a:Bi:mod= :t=Ada	!LO:SIC:s=San-	!LO:TX:a:Bi:mod= :t=Adagio	!LO:TX:a:Bi:mod= :t=Adagio
8C/L	16.c/LL	.	16.c/LL	.	8C/	ſan-	8c\	ſan-	8ee\	ſan-	4cc\	4ee\
.	32c/K	.	32c/K	.	.	.	.	.	.	.	.	.
8C/	16.c/	.	16.e/	.	8C/	-ctum	8c\	-ctum	8ee\	-ctum	.	.
.	32c/K	.	32e/K	.	.	.	.	.	.	.	.	.
8C/J	16.e/	.	16.g/	.	16C/	et	16c\	et	16ee\	et	8r	8r
.	.	.	.	.	16C/	ter-	16c\	ter-	16ee\	ter-	.	.
.	32e/JJk	.	32g/JJk	.	.	.	.	.	.	.	.	.
=133	=133	=133	=133	=133	=133	=133	=133	=133	=133	=133	=133	=133
8C/L	16.g/LL	.	16.cc\LL	.	8C/	-ri-	8c\	-ri-	8ee\	-ri-	4cc\	4ee\
.	32g/K	.	32cc\K	.	.	.	.	.	.	.	.	.
8C/	16.cc/	.	16.ee\	.	8C/	-bi-	8c\	-bi-	8ee\	-bi-	.	.
.	32cc/K	.	32ee\K	.	.	.	.	.	.	.	.	.
8C/J	16.ee/	.	16.gg\	.	8C/	-le	8c\	-le	8ee\	-le	8r	8r
.	32ee/JJk	.	32gg\JJk	.	.	.	.	.	.	.	.	.
=134	=134	=134	=134	=134	=134	=134	=134	=134	=134	=134	=134	=134
16.C/LL	16.ee\LL	.	16.ccc\LL	.	4C/	no-	4c\	no-	4ee\	no-	16.cc\LL	16.ee\LL
32C/K	32ee\K	.	32ccc\K	.	.	.	.	.	.	.	32cc\K	32ee\K
16.C/	16.ee\	.	16.ccc\	.	.	.	.	.	.	.	16.cc\	16.ee\
32C/K	32ee\K	.	32ccc\K	.	.	.	.	.	.	.	32cc\K	32ee\K
16.C/	16.ee\	.	16.ccc\	.	8C/	-men	8c\	-men	8ee\	-men	16.cc\	16.ee\
32C/JJk	32cc\JJk	.	32ee\JJk	.	.	.	.	.	.	.	32cc\JJk	32ee\JJk
!	!	!	!LO:LB:g=original	!	!	!	!	!	!	!	!	!
=135	=135	=135	=135	=135	=135	=135	=135	=135	=135	=135	=135	=135
!	!LO:SIC:s=8ccLT	!	!LO:SIC:s=8eetL	!	!	!	!	!	!LO:SIC:s=8eet	!	!	!
!LO:TX:t=P:problem=mixed beam	!LO:TX:a:mod= :t=t	!	!LO:TX:a:mod= :t=t	!	!	!	!LO:TX:t=P:problem=kreska pionowa przed nutą	!	!LO:TX:a:mod= :t=t	!	!	!
8G\L	8cc\L	.	8ee\L	.	8G\	e-	8c\	e-	8ee\	e-	8cc\L	8ee\L
8GG/J	8b\J	.	8dd\J	.	8GG/	-jus	8B\	-jus	8dd\	-juſ	8g\J	8dd\J
8r	8r	.	8r	.	8r	.	8r	.	8r	.	8r	8r
=136	=136	=136	=136	=136	=136	=136	=136	=136	=136	=136	=136	=136
!	!	!	!	!	!	!	!	!	!LO:TX:t=P:problem=tekst zamazany / dopisany pod głównym tekstem	!	!	!
4.r	16.b\LL	.	16.dd\LL	.	4.r	.	8B\	i-	8dd\	i-	4.r	4.r
.	32b\K	.	32dd\K	.	.	.	.	.	.	.	.	.
.	16.b\	.	16.dd\	.	.	.	8B\	-ni-	8dd\	-ni-	.	.
.	32b\K	.	32dd\K	.	.	.	.	.	.	.	.	.
.	16.b\	.	16.dd\	.	.	.	16B\	-ti-	16dd\	-ti-	.	.
.	.	.	.	.	.	.	16B\	-um	16dd\	-um	.	.
.	32b\JJk	.	32dd\JJk	.	.	.	.	.	.	.	.	.
!	!	!	!	!	!	!	!	!	!LO:LB:g=original	!	!	!
=137	=137	=137	=137	=137	=137	=137	=137	=137	=137	=137	=137	=137
16.E\LL	16.b\LL	.	16.dd\LL	.	4E\	ſa-	4B\	ſa-	4dd\	ſa-	4e/	4e/
32E\K	32b\K	.	32dd\K	.	.	.	.	.	.	.	.	.
16.E\	16.b\	.	16.dd\	.	.	.	.	.	.	.	.	.
32E\K	32b\K	.	32dd\K	.	.	.	.	.	.	.	.	.
16.E\	16.b\	.	16.dd\	.	8E\	-pi-	8B\	-pi-	8dd\	-pi-	8r	8r
32E\JJk	32b\JJk	.	32dd\JJk	.	.	.	.	.	.	.	.	.
=138	=138	=138	=138	=138	=138	=138	=138	=138	=138	=138	=138	=138
16.E\LL	16.b\LL	.	16.dd\LL	.	4E\	-en-	4B\	-en-	4dd\	-en-	16.e/LL	16.e/LL
32E\K	32b\K	.	32dd\K	.	.	.	.	.	.	.	32e/K	32e/K
16.E\	16.b\	.	16.dd\	.	.	.	.	.	.	.	16.e/	16.e/
32E\K	32b\K	.	32dd\K	.	.	.	.	.	.	.	32e/K	32e/K
16.E\	16.b\	.	16.dd\	.	8E\	-ti-	8B\	-ti-	8dd\	-ti-	16.e/	16.e/
32E\JJk	32b\JJk	.	32dd\JJk	.	.	.	.	.	.	.	32e/JJk	32e/JJk
!LO:LB:g=original	!	!	!	!	!	!	!	!	!	!	!	!
=139	=139	=139	=139	=139	=139	=139	=139	=139	=139	=139	=139	=139
.	.	.	.	.	.	.	8qqB/	.	8qqdd/	.	.	.
16A\LL	16a/LL	.	16cc/LL	.	4A\	-ae	4A\	-ae	4cc\	-ae	4e/	4e/
16A\	16a/	.	16a/	.	.	.	.	.	.	.	.	.
16E\	16e/	.	16e/	.	.	.	.	.	.	.	.	.
16C\J	16c/J	.	16c/J	.	.	.	.	.	.	.	.	.
8AA\J	8A/J	.	8A/J	.	8r	.	8r	.	8r	.	8r	8r
!	!	!	!	!	!	!	!LO:LB:g=original	!	!	!	!	!
=140	=140	=140	=140	=140	=140	=140	=140	=140	=140	=140	=140	=140
4.r	16.a/LL	.	16.cc\LL	.	4.r	.	4A\	ti-	4cc\	ti-	4.r	4.r
.	32a/K	.	32cc\K	.	.	.	.	.	.	.	.	.
.	16.a/	.	16.cc\	.	.	.	.	.	.	.	.	.
.	32a/K	.	32cc\K	.	.	.	.	.	.	.	.	.
.	16.a/	.	16.cc\	.	.	.	8A\	-mor	8cc\	-mor	.	.
.	32a/JJk	.	32cc\JJk	.	.	.	.	.	.	.	.	.
=141	=141	=141	=141	=141	=141	=141	=141	=141	=141	=141	=141	=141
16.D\LL	16.a/LL	.	16.cc\LL	.	4.D\	Do-	4.A\	Do-	4.cc\	Do-	4dd\	4dd\
32D\K	32a/K	.	32cc\K	.	.	.	.	.	.	.	.	.
16.D\	16.a/	.	16.cc\	.	.	.	.	.	.	.	.	.
32D\K	32a/K	.	32cc\K	.	.	.	.	.	.	.	.	.
16.D\	16.a/	.	16.cc\	.	.	.	.	.	.	.	8r	8r
32D\JJk	32a/JJk	.	32cc\JJk	.	.	.	.	.	.	.	.	.
=142	=142	=142	=142	=142	=142	=142	=142	=142	=142	=142	=142	=142
16.D\LL	16.a/LL	.	16.cc\LL	.	4D\	.	4A\	.	4cc\	.	16.dd\LL	16.dd\LL
32D\K	32a/K	.	32cc\K	.	.	.	.	.	.	.	32dd\K	32dd\K
16.D\	16.a/	.	16.cc\	.	.	.	.	.	.	.	16.dd\	16.dd\
32D\K	32a/K	.	32cc\K	.	.	.	.	.	.	.	32dd\K	32dd\K
16.D\	16.a/	.	16.cc\	.	8D\	-mi-	8A\	-mi-	8cc\	-mi-	16.dd\	16.dd\
32D\JJk	32a/JJk	.	32cc\JJk	.	.	.	.	.	.	.	32dd\JJk	32dd\JJk
!	!LO:LB:g=original	!	!	!	!	!	!	!	!	!	!	!
=143	=143	=143	=143	=143	=143	=143	=143	=143	=143	=143	=143	=143
.	.	.	.	.	.	.	8qqA/	.	8qqcc/	.	.	.
!	!	!	!	!	!	!LO:SIC:s=-ni.	!	!LO:SIC:s=-ni.	!	!LO:SIC:s=-ni.	!	!
16G\LL	16g/LL	.	16b/LL	.	4GG/	-ni	4G/	-ni	4b\	-ni	4dd\	4dd\
16G\	16g/	.	16g/	.	.	.	.	.	.	.	.	.
16D\	16d/	.	16d/	.	.	.	.	.	.	.	.	.
16BB\J	16B/J	.	16B/J	.	.	.	.	.	.	.	.	.
8GG;\J	8G;/J	.	8G;/J	.	8r;	.	8r;	.	8r;	.	8r;	8r;
!LO:MO:mod==144||	!LO:MO:mod==144||	!LO:MO:mod==144||	!LO:MO:mod==144||	!LO:MO:mod==144||	!LO:MO:mod==144||	!LO:MO:mod==144||	!LO:MO:mod==144||	!LO:MO:mod==144||	!LO:MO:mod==144||	!LO:MO:mod==144||	!LO:MO:mod==144||	!LO:MO:mod==144||
=144	=144	=144	=144	=144	=144	=144	=144	=144	=144	=144	=144	=144
!!!OMD:
!!!OMD-mod: Allegro
!LO:TX:a:Bi:mod= :t=Allo	!LO:TX:a:Bi:mod= :t=Allo	!	!LO:TX:a:Bi:mod= :t=Allo	!	!LO:TX:a:Bi:mod= :t=Allo	!LO:SIC:s=In-	!LO:TX:a:Bi:mod= :t=Allo	!LO:SIC:s=In-	!LO:TX:a:Bi:mod= :t=Allo	!LO:SIC:s=In-	!LO:TX:a:Bi:mod= :t=Allo	!LO:TX:a:Bi:mod= :t=Allo
8G\L	8b\L	.	8g/	.	8G\	in-	8B\	in-	8dd\	in-	8g/L	8dd\L
!	!	!	!	!	!	!	!LO:N:vis=4.	!	!	!	!	!
8G\	8b\	.	4dd\	.	4G\	-tel-	4B\	-tel-	4dd\	-tel-	16g/L	16dd\L
.	.	.	.	.	.	.	.	.	.	.	16g/	16dd\
8G\J	8b\J	.	.	.	.	.	.	.	.	.	16g/	16dd\
.	.	.	.	.	.	.	.	.	.	.	16g/JJ	16dd\JJ
!	!	!	!	!	!LO:LB:g=original	!	!	!	!	!	!LO:LB:g=original	!
=145	=145	=145	=145	=145	=145	=145	=145	=145	=145	=145	=145	=145
8G\L	8b\L	.	(16dd\LL	.	8G\	-le-	8B\	-le-	8dd\	-le-	4g/	4dd\
.	.	.	16b\JJ)	.	.	.	.	.	.	.	.	.
8G\	8b\	.	4g/	.	4G\	-ctus	4B\	-ctuſ	4dd\	-ctuſ	.	.
8G\J	8b\J	.	.	.	.	.	.	.	.	.	8r	8r
=146	=146	=146	=146	=146	=146	=146	=146	=146	=146	=146	=146	=146
8G\L	8cc\L	.	8g/	.	8G\	bo-	8c\	bo-	8ee\	bo-	8cc\L	8ee\L
8G\	8cc\	.	4ee\	.	4G\	-nuſ	4c\	-nuſ	4ee\	-nuſ	16cc\L	16ee\L
.	.	.	.	.	.	.	.	.	.	.	16cc\	16ee\
8G\J	8cc\J	.	.	.	.	.	.	.	.	.	16cc\	16ee\
.	.	.	.	.	.	.	.	.	.	.	16cc\JJ	16ee\JJ
=147	=147	=147	=147	=147	=147	=147	=147	=147	=147	=147	=147	=147
8G\L	8cc\L	.	(16ee\LL	.	8G\	om-	8c\	om-	8ee\	om-	4cc\	4ee\
.	.	.	16cc\JJ)	.	.	.	.	.	.	.	.	.
8G\	8cc\	.	4g/	.	8G\	-ni-	8c\	-ni-	8ee\	-ni-	.	.
8G\J	8cc\J	.	.	.	8G\	-buſ	8c\	-buſ	8ee\	-buſ	8r	8r
!	!	!	!	!	!	!	!	!	!	!	!	!LO:LB:g=original
=148	=148	=148	=148	=148	=148	=148	=148	=148	=148	=148	=148	=148
!LO:TX:t=P:problem=mixed beam	!	!	!	!	!	!	!	!	!LO:MO:mod=16ff	!LO:SIC:s=fa-	!	!
8G\L	8dd\L	.	8ff\L	.	16G\	fa-	16d\	fa-	8ff\	faci-	4dd\	4ff\
!	!	!	!	!	!	!	!	!	!LO:MO:null:mod=16ff@	!LO:MO:null:mod=-ci-	!	!
.	.	.	.	.	16G\	-ci-	16d\	-ci-	.	.	.	.
8BB/	8dd\	.	8ff\	.	8BB/	-en-	8d\	-en-	8ff\	-en-	.	.
!	!	!	!	!	!	!	!	!	!LO:TX:t=P:problem=skreślony dźwięk 8ff	!	!	!
8C/J	8cc\J	.	8ee\J	.	16C/	-ti-	16c\	-ti-	16ee\	-ti-	8cc\	8ee\
.	.	.	.	.	16C/	-bus	16c\	-bus	16ee\	-buſ	.	.
!	!	!	!LO:LB:g=original	!	!	!	!	!	!	!	!	!
=149	=149	=149	=149	=149	=149	=149	=149	=149	=149	=149	=149	=149
!	!LO:SIC:s=4ccT	!	!LO:SIC:s=4eet	!	!	!	!	!	!	!	!	!
!	!LO:TX:a:mod= :t=t	!	!LO:TX:a:mod= :t=t	!	!	!	!	!	!	!	!	!
4G\	4cc\	.	4ee\	.	4G\	e-	4c\	e-	4ee\	e-	4cc\	4ee\
8GG/	8b\	.	8dd\	.	8GG/	-um	8B\	-um	8dd\	-um	8g\	8dd\
=150	=150	=150	=150	=150	=150	=150	=150	=150	=150	=150	=150	=150
8C\L	8ee\L	.	4ccc\	.	8C\	lau-	8G\	lau-	8ee\	lau-	4cc\	4ee\
8E\	8g\	.	.	.	8E\	-da-	8G\	-da-	8ee\	-da-	.	.
8G\J	8dd\J	.	8bb\	.	16G\	-ti-	16B\	-ti-	16dd\	-ti-	8g\	8dd\
.	.	.	.	.	16G\	-o	16B\	-o	16dd\	-o	.	.
=151	=151	=151	=151	=151	=151	=151	=151	=151	=151	=151	=151	=151
8C\L	8ee\L	.	4ccc\	.	8C\L	e-	4G\	e-	4ee\	e-	4cc\	4ee\
8E\	8g\	.	.	.	8E\J	.	.	.	.	.	.	.
8G\J	8dd\J	.	8bb\	.	8G\	-jus	8B\	-jus	8dd\	-jus	8g\	8dd\
!	!	!	!	!	!	!	!	!	!LO:LB:g=original	!	!	!
=152	=152	=152	=152	=152	=152	=152	=152	=152	=152	=152	=152	=152
8c\L	8ee\L	.	8gg\L	.	8c\	ma-	8c\	ma-	8ee\	ma-	4cc\	4ee\
8B\	8dd\	.	8gg\	.	8B\	-net	8d\	-net	8dd\	-net	.	.
8A\J	8ee\J	.	8ccc\J	.	8A\	in	8e\	in	8cc\	in	8r	8r
!LO:LB:g=original	!	!	!	!	!	!	!LO:LB:g=original	!	!	!	!	!
=153	=153	=153	=153	=153	=153	=153	=153	=153	=153	=153	=153	=153
8G\L	4dd\	.	4bb\	.	8G\	ſae-	8d\	ſae-	8dd\	ſae-	8g\L	8dd\L
8F\	.	.	.	.	8F\	-cu-	8d\	-cu-	8dd\	-cu-	8g\	8dd\
8E\J	8ee\	.	8ccc\	.	8E\	-lum	8e\	-lum	8ee\	-lum	8cc\J	8ee\J
=154	=154	=154	=154	=154	=154	=154	=154	=154	=154	=154	=154	=154
!LO:TX:t=P:problem=mixed beam	!	!	!	!	!	!	!	!	!	!	!	!
8C\L	8g\L	.	8ee\L	.	8C\L	ſae-	8c\L	ſae-	8ee\L	ſae-	8cc\L	8ee\L
8G\	8b\	.	8dd\	.	8G\J	.	8B\J	.	8dd\J	.	8g\	8dd\
8GG/J	8dd\J	.	8bb\J	.	8GG/	-cu-	8B\	-cu-	8dd\	-cu-	8g\J	8dd\J
=155	=155	=155	=155	=155	=155	=155	=155	=155	=155	=155	=155	=155
!	!	!	!	!	!	!LO:SIC:s=-li.	!	!LO:SIC:s=-li.	!	!LO:SIC:s=-li.	!	!
8C\L	4ee\	.	4ccc\	.	4C/	-li	4c\	-li	4ee\	-li	8cc\	8ee\
8E\	.	.	.	.	.	.	.	.	.	.	8r	8r
8C\J	8ee\	.	8gg\	.	8r	.	8r	.	8r	.	8ee\	8gg\
=156	=156	=156	=156	=156	=156	=156	=156	=156	=156	=156	=156	=156
!	!	!	!	!	!	!	!LO:N:vis=00	!	!	!	!	!
!	!	!	!	!	!LO:N:vis=00	!	!LO:TX:a:mod= :t=13	!	!LO:N:vis=00	!	!	!
8F\L	8cc\	.	4.aa\	.	1.r	.	1.r	.	1.r	.	4.ff\	4.aa\
8D\	4ff\	.	.	.	.	.	.	.	.	.	.	.
8BB\J	.	.	.	.	.	.	.	.	.	.	.	.
=157	=157	=157	=157	=157	=157	=157	=157	=157	=157	=157	=157	=157
8E\L	8b\	.	4.gg\	.	.	.	.	.	.	.	4.ee\	4.gg\
8C\	4ee\	.	.	.	.	.	.	.	.	.	.	.
8AA\J	.	.	.	.	.	.	.	.	.	.	.	.
=158	=158	=158	=158	=158	=158	=158	=158	=158	=158	=158	=158	=158
8D/L	8a\	.	4.ff\	.	.	.	.	.	.	.	4.dd\	4.ff\
8BB/	4dd\	.	.	.	.	.	.	.	.	.	.	.
8GG/J	.	.	.	.	.	.	.	.	.	.	.	.
=159	=159	=159	=159	=159	=159	=159	=159	=159	=159	=159	=159	=159
8C\L	16ee\LL	.	16ee\LL	.	.	.	.	.	.	.	4cc\	4ee\
.	16ccc\	.	16ccc\	.	.	.	.	.	.	.	.	.
8D\	16bb\	.	16bb\	.	.	.	.	.	.	.	.	.
.	16aa\	.	16aa\	.	.	.	.	.	.	.	.	.
8E\J	16gg\	.	16gg\	.	.	.	.	.	.	.	8r	8r
.	16ff\JJ	.	16ff\JJ	.	.	.	.	.	.	.	.	.
=160	=160	=160	=160	=160	=160	=160	=160	=160	=160	=160	=160	=160
!LO:TX:t=P:problem=mixed beam	!	!	!LO:TUP:a	!	!LO:N:vis=00	!LO:N:vis=00	!	!	!	!	!	!
8F\L	24ee\LL	.	24ee\LL	.	1.r	.	1.r	.	4.r	.	8r	8r
.	24dd\	.	24dd\	.	.	.	.	.	.	.	.	.
.	24cc\JJ	.	24cc\JJ	.	.	.	.	.	.	.	.	.
!	!LO:SIC:s=4ddT	!	!LO:SIC:s=4ddT	!	!	!	!	!	!	!	!	!
!	!LO:TX:a:mod= :t=t	!	!LO:TX:a:mod= :t=t	!	!	!	!	!	!	!	!	!
8G\	4dd\	.	4dd\	.	.	.	.	.	.	.	8g/L	8dd\L
8GG/J	.	.	.	.	.	.	.	.	.	.	16g/L	16dd\L
.	.	.	.	.	.	.	.	.	.	.	16g/JJ	16dd\JJ
=161	=161	=161	=161	=161	=161	=161	=161	=161	=161	=161	=161	=161
!LO:TX:t=P:problem=mixed beam	!	!	!	!	!	!	!	!	!LO:TX:a:i:mod= :t=Solo	!	!	!
8C/L	4cc\	.	4cc\	.	.	.	.	.	8cc\	Glo-	4e/	4cc\
8c\	.	.	.	.	.	.	.	.	8cc\	-ri-	.	.
8B\J	8r	.	8r	.	.	.	.	.	8cc\	-a	8r	8r
!	!LO:LB:g=original	!	!	!	!	!	!	!	!	!	!	!
=162	=162	=162	=162	=162	=162	=162	=162	=162	=162	=162	=162	=162
!	!LO:N:vis=00	!	!LO:N:vis=00	!	!	!	!	!	!	!	!LO:N:vis=00	!LO:N:vis=00
8A\L	1.r	.	1.r	.	.	.	.	.	8cc\	Pa-	1.r	1.r
16G\L	.	.	.	.	.	.	.	.	4cc\	-tri	.	.
16F\	.	.	.	.	.	.	.	.	.	.	.	.
8E\JJ	.	.	.	.	.	.	.	.	.	.	.	.
=163	=163	=163	=163	=163	=163	=163	=163	=163	=163	=163	=163	=163
8D/L	.	.	.	.	.	.	.	.	8ff\	glo-	.	.
8BB/	.	.	.	.	.	.	.	.	8ff\	-ri-	.	.
8GG/J	.	.	.	.	.	.	.	.	8ff\	-a	.	.
=164	=164	=164	=164	=164	=164	=164	=164	=164	=164	=164	=164	=164
!	!	!	!	!	!LO:N:vis=00	!	!LO:N:vis=00	!	!	!	!	!
8C\L	.	.	.	.	1.r	.	1.r	.	16ee\	Fi-	.	.
.	.	.	.	.	.	.	.	.	16dd\	-li-	.	.
.	.	.	.	.	.	.	.	.	8qqdd/	.	.	.
8D\	.	.	.	.	.	.	.	.	4cc\	-o	.	.
8E\J	.	.	.	.	.	.	.	.	.	.	.	.
=165	=165	=165	=165	=165	=165	=165	=165	=165	=165	=165	=165	=165
8D/L	.	.	.	.	.	.	.	.	8ff\	et	.	.
!	!	!	!	!	!	!	!	!	!	!LO:SIC:s=Spi-	!	!
8BB/	.	.	.	.	.	.	.	.	4ff\	ſpi-	.	.
8GG/J	.	.	.	.	.	.	.	.	.	.	.	.
=166	=166	=166	=166	=166	=166	=166	=166	=166	=166	=166	=166	=166
!	!LO:N:vis=0	!	!LO:N:vis=0	!	!	!	!	!	!	!	!LO:N:vis=0	!LO:N:vis=0
8C\L	2.r	.	2.r	.	.	.	.	.	8ee\	-ri-	2.r	2.r
8D\	.	.	.	.	.	.	.	.	8dd\	-tu-	.	.
8E\J	.	.	.	.	.	.	.	.	8cc\	-i	.	.
=167	=167	=167	=167	=167	=167	=167	=167	=167	=167	=167	=167	=167
!LO:TX:t=P:problem=mixed beam	!	!	!	!	!	!	!	!	!	!LO:SIC:s=Sanc-	!	!
8F\L	.	.	.	.	.	.	.	.	8dd\	ſanc-	.	.
.	.	.	.	.	.	.	.	.	8qqcc/	.	.	.
8G\	.	.	.	.	.	.	.	.	4b\	.	.	.
8GG/J	.	.	.	.	.	.	.	.	.	.	.	.
=168	=168	=168	=168	=168	=168	=168	=168	=168	=168	=168	=168	=168
.	.	.	.	.	.	.	.	.	8qqb/	.	.	.
!	!LO:N:vis=1	!	!LO:N:vis=1	!	!LO:N:vis=1	!	!LO:N:vis=1	!	!	!LO:SIC:s=-to.	!LO:N:vis=1	!LO:N:vis=1
8C/L	4.r	.	4.r	.	4.r	.	4.r	.	4cc\	-to	4.r	4.r
8GG/	.	.	.	.	.	.	.	.	.	.	.	.
8C/J	.	.	.	.	.	.	.	.	8r	.	.	.
!	!	!	!	!	!LO:LB:g=original	!	!	!	!	!	!	!
=169	=169	=169	=169	=169	=169	=169	=169	=169	=169	=169	=169	=169
!	!	!	!	!	!	!LO:SIC:s=Si-	!	!LO:SIC:s=Si-	!	!LO:SIC:s=Si-	!	!
4c\	4ee\	.	4gg\	.	4c\	ſi-	4G\	ſi-	4ee\	ſi-	4cc\	4ee\
8B\	8dd\	.	8gg\	.	8B\	-cut	8G\	-cut	8dd\	-cut	8g\	8dd\
!LO:LB:g=original	!	!	!	!	!	!	!	!	!	!	!	!
=170	=170	=170	=170	=170	=170	=170	=170	=170	=170	=170	=170	=170
4c\	4ee\	.	4gg\	.	4c\	e-	4G\	e-	4ee\	e-	4cc\	4ee\
8B\	8dd\	.	8gg\	.	8B\	-rat	8G\	-rat	8dd\	-rat	8g\	8dd\
!	!	!	!	!	!	!	!	!	!LO:LB:g=original	!	!LO:LB:g=original	!
=171	=171	=171	=171	=171	=171	=171	=171	=171	=171	=171	=171	=171
!LO:TX:t=P:problem=mixed beam	!	!	!	!	!	!	!	!	!	!	!	!
8c\L	8ee\	.	8ccc\	.	8c\	in	8G\	in	8ee\	in	8cc\	8ee\
16C/L	4cc\	.	4gg\	.	16C/LL	prin-	4c\	prin-	4ee\	prin-	4cc\	4ee\
16D/	.	.	.	.	16D/	.	.	.	.	.	.	.
16E/	.	.	.	.	16E/	.	.	.	.	.	.	.
16F/JJ	.	.	.	.	16F/JJ	.	.	.	.	.	.	.
=172	=172	=172	=172	=172	=172	=172	=172	=172	=172	=172	=172	=172
!LO:TX:t=P:problem=mixed beam	!LO:TX:t=P:problem=mixed beam	!	!LO:TX:t=P:problem=mixed beam	!	!	!	!	!	!	!	!	!
8G\L	(8cc\L	.	(8ee\L	.	16G\	-ci-	16c\	-ci-	16ee\	-ci-	8cc\L	8ee\L
.	.	.	.	.	16G\	-pi-	16c\	-pi-	16ee\	-pi-	.	.
8GG/	8b\	.	8dd\	.	8G\	-o	8B\	-o	8dd\	-o	8g\J	8dd\J
8E\J	8c/J)	.	8g/J)	.	8E\	et	8c\	et	8g\	et	8r	8r
=173	=173	=173	=173	=173	=173	=173	=173	=173	=173	=173	=173	=173
!	!	!	!	!	!	!	!	!	!	!	!LO:N:vis=00	!LO:N:vis=00
8F\L	8c/L	.	8a/	.	8F\L	nunc	8c\L	nunc	4a\	nunc	1.r	1.r
!	!	!	!LO:SIC:s=4bt	!	!	!	!	!	!	!	!	!
!	!	!	!LO:TX:a:mod= :t=t	!	!	!	!	!	!	!	!	!
8D\	8f/	.	4b\	.	8D\J	.	8f\J	.	.	.	.	.
8G\J	8d/J	.	.	.	8G\	et	8d\	et	8b\	et	.	.
=174	=174	=174	=174	=174	=174	=174	=174	=174	=174	=174	=174	=174
8E\L	8e/L	.	8cc\	.	8E/L	ſem-	4e\	ſem-	4cc\	ſem-	.	.
!	!	!	!LO:SIC:s=4ddT	!	!	!	!	!	!	!	!	!
!	!	!	!LO:TX:a:mod= :t=t	!	!	!	!	!	!	!	!	!
8C\	8g/	.	4dd\	.	8C/	.	.	.	.	.	.	.
8BB\J	8b/J	.	.	.	8BB/J	.	8B\	.	8dd\	.	.	.
!	!	!	!LO:LB:g=original	!	!	!	!	!	!	!	!	!
=175	=175	=175	=175	=175	=175	=175	=175	=175	=175	=175	=175	=175
8C/L	8g/L	.	8ee\	.	8C/L	.	4G\	.	4ee\	.	.	.
!	!	!	!LO:SIC:s=4ff#t	!	!	!	!	!	!	!	!	!
!	!	!	!LO:TX:a:mod= :t=t	!	!	!	!	!	!	!	!	!
8AA/	8cc/	.	4ff#X\	.	8AA/	.	.	.	.	.	.	.
8D/J	8a/J	.	.	.	8D/J	.	8c\	.	8ff#X\	.	.	.
=176	=176	=176	=176	=176	=176	=176	=176	=176	=176	=176	=176	=176
!	!	!	!LO:SIC:v:s=8qqff#	!	!	!	!	!	!LO:SIC:v:s=8qqff#	!	!	!
.	.	.	8qqff/	.	.	.	8qqc/	.	8qqff/	.	.	.
!	!	!	!	!	!	!LO:MO:null:mod=-per	!	!	!	!	!	!
8BB/L	8dd\L	.	4.gg\	.	8BB/L	.	4.B\	-per	4.gg\	-per	.	.
8AA/	8cc\	.	.	.	8AA/	.	.	.	.	.	.	.
!	!	!	!	!	!	!LO:MO:mod=.	!	!	!	!	!	!
8GG/J	8b\J	.	.	.	8GG/J	-per	.	.	.	.	.	.
=177	=177	=177	=177	=177	=177	=177	=177	=177	=177	=177	=177	=177
!	!	!	!	!	!	!	!	!	!LO:SIC:s=8ffn	!	!	!
8GG/L	8ff\	.	8ddd\	.	8G\L	et	8d\	et	8ff\	et	8dd\L	8ff\L
!	!LO:N:vis=4.	!	!	!	!	!	!	!	!	!	!	!
8AA/	4dd\	.	4ff\	.	8A\J	.	4d\	in	4ff\	in	8dd\	8ff\
8BB/J	.	.	.	.	8B\	in	.	.	.	.	8dd\J	8ff\J
=178	=178	=178	=178	=178	=178	=178	=178	=178	=178	=178	=178	=178
8C\L	8g/L	.	8ee\L	.	8c\	ſae-	8G/	ſae-	8ee\	ſae-	4cc\	4ee\
8D\	8f/	.	8bb\	.	8d\	-cu-	8F/	-cu-	8dd\	-cu-	.	.
8E\J	8e/J	.	8ccc\J	.	8e\	-la	8E/	-la	8cc\	-la	8r	8r
!	!	!	!	!	!	!	!LO:LB:g=original	!	!	!	!	!LO:LB:g=original
=179	=179	=179	=179	=179	=179	=179	=179	=179	=179	=179	=179	=179
!	!LO:SIC:s=(16ffLL	!	!	!	!	!	!	!	!	!	!	!
8GG/L	16ff\LL	.	(16ddd\LL	.	8G\L	ſae-	8d\	ſae-	8ff\	ſae-	8dd\L	8ff\L
!	!LO:SIC:s=16ddJJ)	!	!	!	!	!	!	!	!	!	!	!
.	16dd\JJ	.	16ff\JJ)	.	.	.	.	.	.	.	.	.
8AA/	4dd\	.	4ff\	.	8A\J	.	4d\	-cu-	4ff\	-cu-	16dd\L	16ff\L
.	.	.	.	.	.	.	.	.	.	.	16dd\	16ff\
8BB/J	.	.	.	.	8B\	-cu-	.	.	.	.	16dd\	16ff\
.	.	.	.	.	.	.	.	.	.	.	16dd\JJ	16ff\JJ
=180	=180	=180	=180	=180	=180	=180	=180	=180	=180	=180	=180	=180
8C\L	8cc\L	.	8ee\L	.	8c\L	-lo-	8c\L	-lo-	8ee\L	-lo-	4cc\	4ee\
8D\	8ff\	.	8bb\	.	8d\J	.	8B\J	.	8dd\J	.	.	.
!	!	!	!	!	!	!LO:SIC:s=-rum.	!	!LO:SIC:s=-rum.	!	!LO:SIC:s=-rum.	!	!
8E\J	8ee\J	.	8ccc\J	.	8e\	-rum	8c\	-rum	8ee\	-rum	8r	8r
=181	=181	=181	=181	=181	=181	=181	=181	=181	=181	=181	=181	=181
!LO:TX:t=P:problem=mixed beam	!	!	!	!	!LO:TX:t=P:problem=mixed beam	!LO:SIC:s=A-	!	!LO:SIC:s=A-	!	!LO:SIC:s=A-	!	!
8C\L	8g\L	.	8ee\L	.	8c\L	a-	8c\	a-	8ee\	a-	8cc\L	8ee\L
8G\	8b\	.	8dd\	.	8G\	.	4B\	.	4dd\	.	8g\	8dd\
8GG/J	8dd\J	.	8bb\J	.	8GG/J	.	.	.	.	.	8g\J	8dd\J
=182	=182	=182	=182	=182	=182	=182	=182	=182	=182	=182	=182	=182
!	!	!	!	!	!	!LO:SIC:s=-men.	!	!LO:SIC:s=-men.	!	!LO:SIC:s=-men.	!	!
4C/	4ee\	.	4ccc\	.	4C/	-men	4c\	-men	4ee\	-men	4cc\	4ee\
!	!	!	!	!	!LO:SIC:s=8r	!	!	!	!	!	!	!
8r	8r	.	8r	.	8r;	.	8r	.	8r	.	8r	8r
!LO:MO:mod===	!LO:MO:mod===	!	!LO:MO:mod===	!	!	!	!LO:MO:mod===	!	!LO:MO:mod===	!	!LO:MO:mod===	!LO:MO:mod===
==;	==;	==	==;	==	==	==	==;	==	==;	==	==;	==;
*-	*-	*-	*-	*-	*-	*-	*-	*-	*-	*-	*-	*-
!!!system-decoration: [(bras)][vox][(str)][klav]
!!!RDF**kern: > = above
!!!RDF**kern: < = below
!!LO:MO:mod
!! !!!RDF**kern: @ = marked note, color=grey
!!LO:MO:end
!!!filter-modern: shed -e "s/LO:N:/LO:n:$1/L" | shed -e "s/LO:TUP:/LO:tup:$1/L" | shed -e "s/^(X?)tuplet$/$1TUPLET/I" | shed -e "s/LO:DY:/LO:dy:$1/L" | shed -e "s/TX(.*):t=P:/tx$1:t=P:/LG" | shed -k -e "s/([^a-gA-Gn#X-])[<>]/$1/g" | sic -sq | modori -m | autostem -r | tie -s | humtr -p
!!!ENC: Andrzej Kubiczek
!!!END: 2020-05-16
!!!EED: Leszek Kubiak
!!!EEV: 2020-07-15
!!!EED-revision: Andrzej Kubiczek
!!!EEV-revision: 2025-03-01
!!!ENC-modern: Andrzej Kubiczek
!!!END-modern: 2025-03-01
